;FLAVOR:Marlin
;TIME:4094
;Filament used: 3.25126m
;Layer height: 0.2
;MINX:71.952
;MINY:43.224
;MINZ:0.2
;MAXX:139.342
;MAXY:175.027
;MAXZ:17
;Generated with Cura_SteamEngine 5.4.0
M82 ;absolute extrusion mode
print_start EXTRUDER=200 BED=65.0
G92 E0
G92 E0
G1 F3000 E-5
;LAYER_COUNT:85
;LAYER:0
M107
G0 F9000 X76.242 Y60.171 Z0.2
;TYPE:SKIRT
G1 F3000 E0
G1 F1800 X76.832 Y59.442 E0.03119
G1 X77.484 Y58.767 E0.06241
G1 X78.194 Y58.152 E0.09365
G1 X78.947 Y57.608 E0.12455
G1 X79.348 Y57.357 E0.14028
G1 X80.099 Y56.911 E0.16933
G1 X90.748 Y50.763 E0.57831
G1 X91.503 Y50.342 E0.60706
G1 X92.343 Y49.924 E0.63827
G1 X93.217 Y49.581 E0.66949
G1 X94.083 Y49.326 E0.69952
G1 X94.701 Y49.192 E0.72055
G1 X97.237 Y48.719 E0.80635
G1 X99.68 Y48.195 E0.88946
G1 X102.171 Y47.585 E0.97476
G1 X104.612 Y46.912 E1.05897
G1 X107.04 Y46.171 E1.14341
G1 X109.646 Y45.295 E1.23485
G1 X112.949 Y44.222 E1.35036
G1 X113.596 Y44.022 E1.37288
G1 X114.504 Y43.787 E1.40408
G1 X115.403 Y43.634 E1.43441
G1 X116.722 Y43.473 E1.4786
G1 X118.704 Y43.275 E1.54485
G1 X119.642 Y43.224 E1.5761
G1 X120.605 Y43.258 E1.60815
G1 X121.616 Y43.345 E1.6419
G1 X122.217 Y43.414 E1.66202
G1 X123.145 Y43.562 E1.69327
G1 X124.095 Y43.804 E1.72588
G1 X124.919 Y44.061 E1.75459
G1 X125.578 Y44.286 E1.77775
G1 X126.452 Y44.629 E1.80898
G1 X127.253 Y45.027 E1.83872
G1 X128.002 Y45.439 E1.86716
G1 X128.671 Y45.831 E1.89295
G1 X129.454 Y46.348 E1.92415
G1 X130.16 Y46.907 E1.9541
G1 X130.84 Y47.496 E1.98403
G1 X131.364 Y47.972 E2.00757
G1 X132.024 Y48.639 E2.03878
G1 X132.627 Y49.368 E2.07025
G1 X133.354 Y50.339 E2.11059
G1 X133.584 Y50.666 E2.12389
G1 X134.071 Y51.426 E2.15391
G1 X134.507 Y52.258 E2.18515
G1 X134.883 Y53.06 E2.21461
G1 X135.17 Y53.712 E2.23831
G1 X135.502 Y54.59 E2.26953
G1 X135.757 Y55.498 E2.3009
G1 X136.023 Y56.667 E2.34077
G1 X136.113 Y57.123 E2.35623
G1 X136.253 Y58.045 E2.38725
G1 X136.302 Y58.682 E2.4085
G1 X136.346 Y59.647 E2.44063
G1 X136.356 Y60.24 E2.46035
G1 X136.344 Y61.26 E2.49428
G1 X136.293 Y62.191 E2.52529
G1 X136.218 Y62.765 E2.54455
G1 X136.082 Y63.634 E2.5738
G1 X135.713 Y66.227 E2.66091
G1 X135.424 Y68.769 E2.746
G1 X135.211 Y71.257 E2.82906
G1 X135.068 Y73.796 E2.91364
G1 X134.995 Y76.334 E2.99809
G1 X134.995 Y78.858 E3.08204
G1 X135.066 Y81.372 E3.16569
G1 X135.209 Y83.89 E3.24957
G1 X135.424 Y86.439 E3.33465
G1 X135.706 Y88.923 E3.4178
G1 X136.077 Y91.534 E3.50552
G1 X136.222 Y92.458 E3.53662
G1 X136.324 Y93.383 E3.56758
G1 X136.346 Y93.911 E3.58515
G1 X136.356 Y94.848 E3.61632
G1 X136.339 Y95.823 E3.64875
G1 X136.304 Y96.54 E3.67263
G1 X136.223 Y97.675 E3.71047
G1 X136.12 Y98.871 E3.7504
G1 X135.979 Y101.386 E3.83418
G1 X135.907 Y103.93 E3.91883
G1 X135.907 Y106.452 E4.00271
G1 X135.979 Y108.974 E4.08663
G1 X136.123 Y111.514 E4.17124
G1 X136.336 Y114.033 E4.25533
G1 X136.619 Y116.512 E4.33831
G1 X136.976 Y119.019 E4.42254
G1 X137.403 Y121.516 E4.50679
G1 X137.904 Y124.009 E4.59137
G1 X138.467 Y126.459 E4.67498
G1 X138.957 Y128.377 E4.74082
G1 X139.141 Y129.261 E4.77085
G1 X139.264 Y130.226 E4.80321
G1 X139.331 Y131.277 E4.83824
G1 X139.342 Y132.139 E4.86691
G1 X139.341 Y161.833 E5.85454
G1 X139.33 Y162.585 E5.87955
G1 X139.27 Y163.574 E5.9125
G1 X139.219 Y164.031 E5.9278
G1 X139.074 Y164.958 E5.95901
G1 X138.851 Y165.862 E5.98997
G1 X138.69 Y166.361 E6.00741
G1 X138.527 Y166.823 E6.02371
G1 X138.176 Y167.694 E6.05494
G1 X137.767 Y168.499 E6.08497
G1 X137.26 Y169.326 E6.11724
G1 X136.705 Y170.121 E6.14949
G1 X135.821 Y171.133 E6.19418
G1 X135.482 Y171.475 E6.21019
G1 X134.789 Y172.109 E6.24143
G1 X134.072 Y172.658 E6.27147
G1 X133.277 Y173.176 E6.30303
G1 X132.462 Y173.642 E6.33425
G1 X131.616 Y174.031 E6.36522
G1 X131.062 Y174.24 E6.38492
G1 X130.586 Y174.404 E6.40166
G1 X129.688 Y174.667 E6.43279
G1 X128.77 Y174.856 E6.46396
G1 X127.697 Y174.986 E6.49991
G1 X127.085 Y175.014 E6.52028
G1 X126.346 Y175.026 E6.54487
G1 X121.292 Y175.027 E6.71296
G1 X120.434 Y175.016 E6.7415
G1 X119.694 Y174.979 E6.76615
G1 X116.664 Y174.718 E6.8673
G1 X114.16 Y174.578 E6.95071
G1 X111.628 Y174.507 E7.03496
G1 X109.117 Y174.509 E7.11847
G1 X106.548 Y174.582 E7.20395
G1 X104.087 Y174.723 E7.28594
G1 X102.525 Y174.866 E7.33811
G1 X102.23 Y174.88 E7.34793
G1 X101.061 Y174.979 E7.38695
G1 X100.462 Y175.013 E7.40691
G1 X99.81 Y175.027 E7.4286
G1 X92.702 Y175.026 E7.66501
G1 X91.965 Y175.014 E7.68953
G1 X91.031 Y174.957 E7.72065
G1 X90.312 Y174.856 E7.7448
G1 X90.033 Y174.807 E7.75422
G1 X89.151 Y174.612 E7.78427
G1 X88.424 Y174.39 E7.80955
G1 X87.959 Y174.229 E7.82592
G1 X87.087 Y173.882 E7.85713
G1 X86.254 Y173.463 E7.88814
G1 X85.741 Y173.156 E7.90803
G1 X85.36 Y172.914 E7.92304
G1 X84.621 Y172.396 E7.95306
G1 X83.956 Y171.85 E7.98167
G1 X83.183 Y171.101 E8.01747
G1 X82.507 Y170.313 E8.05201
G1 X82.218 Y169.939 E8.06773
G1 X81.679 Y169.172 E8.09891
G1 X81.212 Y168.367 E8.12986
G1 X80.984 Y167.902 E8.14708
G1 X80.758 Y167.411 E8.16506
G1 X80.403 Y166.535 E8.1965
G1 X80.04 Y165.277 E8.24005
G1 X79.89 Y164.598 E8.26318
G1 X72.303 Y127.769 E9.51384
G1 X72.167 Y127.059 E9.53788
G1 X72.036 Y126.166 E9.5679
G1 X71.983 Y125.324 E9.59596
G1 X71.952 Y123.867 E9.64443
G1 X71.953 Y118.05 E9.8379
G1 X71.965 Y117.326 E9.86199
G1 X72.023 Y116.386 E9.89331
G1 X72.199 Y115.284 E9.93043
G1 X72.381 Y114.437 E9.95924
G1 X72.893 Y111.885 E10.04581
G1 X73.32 Y109.391 E10.12997
G1 X73.669 Y106.935 E10.21248
G1 X73.961 Y104.361 E10.29864
G1 X74.171 Y101.897 E10.38089
G1 X74.315 Y99.344 E10.46594
G1 X74.387 Y96.811 E10.55022
G1 X74.387 Y94.289 E10.6341
G1 X74.315 Y91.755 E10.71842
G1 X74.184 Y89.363 E10.7981
G1 X74.159 Y88.11 E10.83978
G1 X74.16 Y67.016 E11.54137
G1 X74.171 Y66.298 E11.56525
G1 X74.227 Y65.361 E11.59647
G1 X74.366 Y64.433 E11.62768
G1 X74.587 Y63.519 E11.65896
G1 X74.875 Y62.663 E11.689
G1 X75.265 Y61.772 E11.72135
G1 X75.718 Y60.949 E11.75259
G1 X76.242 Y60.171 E11.78379
G0 F9000 X76.553 Y60.422
G1 F1800 X77.12 Y59.719 E11.81383
G1 X77.746 Y59.069 E11.84384
G1 X78.428 Y58.476 E11.8739
G1 X79.16 Y57.947 E11.90394
G1 X79.552 Y57.701 E11.91933
G1 X80.299 Y57.257 E11.94824
G1 X90.943 Y51.112 E12.35702
G1 X91.682 Y50.7 E12.38516
G1 X92.49 Y50.296 E12.41521
G1 X93.33 Y49.965 E12.44524
G1 X94.196 Y49.71 E12.47526
G1 X94.774 Y49.585 E12.49493
G1 X97.323 Y49.11 E12.58117
G1 X99.775 Y48.584 E12.66458
G1 X102.266 Y47.974 E12.74988
G1 X104.73 Y47.295 E12.83489
G1 X107.157 Y46.554 E12.91929
G1 X109.77 Y45.675 E13.01098
G1 X113.067 Y44.604 E13.12628
G1 X113.697 Y44.409 E13.14822
G1 X114.571 Y44.181 E13.17826
G1 X115.451 Y44.031 E13.20795
G1 X116.762 Y43.871 E13.25188
G1 X118.726 Y43.674 E13.31753
G1 X119.628 Y43.624 E13.34757
G1 X120.571 Y43.657 E13.37896
G1 X121.582 Y43.744 E13.41271
G1 X122.155 Y43.809 E13.43189
G1 X123.047 Y43.95 E13.46192
G1 X123.976 Y44.186 E13.4938
G1 X124.79 Y44.44 E13.52217
G1 X125.433 Y44.659 E13.54476
G1 X126.274 Y44.987 E13.57478
G1 X127.06 Y45.377 E13.60397
G1 X127.8 Y45.784 E13.63206
G1 X128.451 Y46.165 E13.65714
G1 X129.206 Y46.662 E13.68721
G1 X129.898 Y47.21 E13.71657
G1 X130.571 Y47.792 E13.74616
G1 X131.08 Y48.254 E13.76902
G1 X131.716 Y48.894 E13.79903
G1 X132.307 Y49.608 E13.82986
G1 X133.027 Y50.57 E13.86983
G1 X133.247 Y50.882 E13.88252
G1 X133.734 Y51.642 E13.91254
G1 X134.145 Y52.428 E13.94205
G1 X134.517 Y53.221 E13.97118
G1 X134.796 Y53.854 E13.99419
G1 X135.117 Y54.698 E14.02422
G1 X135.367 Y55.587 E14.05494
G1 X135.631 Y56.745 E14.09444
G1 X135.718 Y57.183 E14.10929
G1 X135.854 Y58.076 E14.13933
G1 X135.902 Y58.7 E14.16015
G1 X135.946 Y59.654 E14.19191
G1 X135.956 Y60.236 E14.21127
G1 X135.945 Y61.238 E14.2446
G1 X135.896 Y62.14 E14.27465
G1 X135.823 Y62.703 E14.29353
G1 X135.687 Y63.572 E14.32279
G1 X135.317 Y66.171 E14.4101
G1 X135.025 Y68.735 E14.49593
G1 X134.813 Y71.223 E14.57898
G1 X134.668 Y73.784 E14.6643
G1 X134.595 Y76.322 E14.74875
G1 X134.595 Y78.858 E14.83309
G1 X134.666 Y81.383 E14.91711
G1 X134.81 Y83.924 E15.00176
G1 X135.026 Y86.473 E15.08684
G1 X135.31 Y88.979 E15.17073
G1 X135.682 Y91.596 E15.25864
G1 X135.824 Y92.502 E15.28914
G1 X135.924 Y93.4 E15.3192
G1 X135.946 Y93.915 E15.33634
G1 X135.956 Y94.841 E15.36714
G1 X135.939 Y95.804 E15.39918
G1 X135.905 Y96.511 E15.42272
G1 X135.824 Y97.641 E15.4604
G1 X135.722 Y98.837 E15.50032
G1 X135.579 Y101.375 E15.58487
G1 X135.507 Y103.919 E15.66952
G1 X135.507 Y106.452 E15.75377
G1 X135.579 Y108.985 E15.83805
G1 X135.724 Y111.548 E15.92343
G1 X135.938 Y114.067 E16.00751
G1 X136.223 Y116.568 E16.09124
G1 X136.582 Y119.086 E16.17583
G1 X137.011 Y121.595 E16.26049
G1 X137.514 Y124.099 E16.34544
G1 X138.079 Y126.558 E16.42936
G1 X138.565 Y128.459 E16.49462
G1 X138.749 Y129.343 E16.52465
G1 X138.867 Y130.276 E16.55593
G1 X138.931 Y131.282 E16.58946
G1 X138.942 Y132.139 E16.61796
G1 X138.941 Y161.828 E17.60542
G1 X138.931 Y162.561 E17.62981
G1 X138.872 Y163.531 E17.66213
G1 X138.824 Y163.97 E17.67682
G1 X138.686 Y164.862 E17.70684
G1 X138.47 Y165.739 E17.73688
G1 X138.309 Y166.238 E17.75432
G1 X138.156 Y166.674 E17.76968
G1 X137.819 Y167.513 E17.79976
G1 X137.41 Y168.318 E17.82979
G1 X136.919 Y169.117 E17.86098
G1 X136.404 Y169.858 E17.89099
G1 X135.52 Y170.87 E17.93569
G1 X135.211 Y171.18 E17.95024
G1 X134.546 Y171.791 E17.98028
G1 X133.829 Y172.34 E18.01032
G1 X133.078 Y172.829 E18.04012
G1 X132.295 Y173.279 E18.07016
G1 X131.475 Y173.657 E18.10019
G1 X130.932 Y173.862 E18.1195
G1 X130.473 Y174.02 E18.13564
G1 X129.607 Y174.275 E18.16567
G1 X128.689 Y174.464 E18.19684
G1 X127.678 Y174.586 E18.23071
G1 X127.078 Y174.614 E18.25069
G1 X126.346 Y174.626 E18.27504
G1 X121.297 Y174.627 E18.44297
G1 X120.454 Y174.616 E18.47101
G1 X119.728 Y174.58 E18.49519
G1 X116.698 Y174.32 E18.59633
G1 X114.171 Y174.178 E18.68052
G1 X111.639 Y174.107 E18.76476
G1 X109.106 Y174.109 E18.84901
G1 X106.537 Y174.182 E18.93449
G1 X104.056 Y174.324 E19.01714
G1 X102.507 Y174.466 E19.06888
G1 X102.203 Y174.48 E19.079
G1 X101.038 Y174.58 E19.11789
G1 X100.453 Y174.613 E19.13738
G1 X99.81 Y174.627 E19.15877
G1 X92.708 Y174.626 E19.39499
G1 X91.989 Y174.615 E19.4189
G1 X91.087 Y174.561 E19.44896
G1 X90.381 Y174.462 E19.47267
G1 X90.119 Y174.416 E19.48152
G1 X89.237 Y174.221 E19.51156
G1 X88.555 Y174.012 E19.53528
G1 X88.106 Y173.857 E19.55108
G1 X87.266 Y173.524 E19.58114
G1 X86.459 Y173.119 E19.61117
G1 X85.956 Y172.819 E19.63065
G1 X85.59 Y172.586 E19.64508
G1 X84.851 Y172.068 E19.67509
G1 X84.21 Y171.541 E19.70269
G1 X83.486 Y170.84 E19.73621
G1 X82.823 Y170.068 E19.77006
G1 X82.545 Y169.709 E19.78516
G1 X82.025 Y168.971 E19.81519
G1 X81.571 Y168.19 E19.84523
G1 X81.347 Y167.735 E19.8621
G1 X81.128 Y167.26 E19.8795
G1 X80.787 Y166.424 E19.90953
G1 X80.431 Y165.191 E19.95221
G1 X80.282 Y164.517 E19.97517
G1 X72.696 Y127.694 E21.22563
G1 X72.563 Y127.001 E21.2491
G1 X72.432 Y126.108 E21.27912
G1 X72.383 Y125.315 E21.30554
G1 X72.352 Y123.867 E21.35372
G1 X72.353 Y118.056 E21.54699
G1 X72.364 Y117.35 E21.57048
G1 X72.418 Y116.449 E21.6005
G1 X72.59 Y115.368 E21.6369
G1 X72.772 Y114.521 E21.66572
G1 X73.285 Y111.964 E21.75246
G1 X73.714 Y109.459 E21.83699
G1 X74.065 Y106.991 E21.9199
G1 X74.36 Y104.395 E22.0068
G1 X74.569 Y101.931 E22.08905
G1 X74.715 Y99.355 E22.17486
G1 X74.787 Y96.822 E22.25914
G1 X74.787 Y94.289 E22.34339
G1 X74.715 Y91.744 E22.42807
G1 X74.584 Y89.355 E22.50765
G1 X74.559 Y88.11 E22.54907
G1 X74.56 Y67.022 E23.25046
G1 X74.57 Y66.321 E23.27378
G1 X74.623 Y65.419 E23.30383
G1 X74.755 Y64.526 E23.33385
G1 X74.966 Y63.647 E23.36392
G1 X75.254 Y62.791 E23.39396
G1 X75.616 Y61.964 E23.42398
G1 X76.05 Y61.172 E23.45402
G1 X76.553 Y60.422 E23.48406
G1 F3000 E18.48406
;MESH:Fan_Duct_for_H2_plain.stl
G0 F9000 X84.635 Y65.765
G0 X85.176 Y66.701
G0 X97.058 Y61.165
G0 X107.122 Y60.762
G0 X108.57 Y59.458
G0 X112.637 Y57.11
G0 X117.095 Y55.66
G0 X119.765 Y55.38
G0 X120.681 Y55.47
G0 X121.558 Y55.756
G0 X122.362 Y56.219
G0 X123.048 Y56.838
G0 X123.594 Y57.59
G0 X123.972 Y58.44
G0 X124.131 Y59.264
G0 X114.201 Y60.637
G0 X105.675 Y68.315
G0 X103.289 Y79.536
G0 X105.271 Y86.039
G0 X114.204 Y94.568
G0 X124.131 Y95.938
G0 X123.972 Y96.765
G0 X123.594 Y97.614
G0 X123.046 Y98.368
G0 X122.362 Y98.984
G0 X121.639 Y99.402
G0 X119.764 Y99.985
;TYPE:WALL-INNER
G1 F3000 E23.48406
G1 F1800 X120.714 Y99.893 E23.5158
G1 X121.624 Y99.597 E23.54763
G1 X122.457 Y99.115 E23.57964
G1 X123.166 Y98.477 E23.61136
G1 X123.734 Y97.695 E23.64351
G1 X124.125 Y96.815 E23.67554
G1 X124.324 Y95.886 E23.70714
G1 X124.324 Y95.74 E23.71199
G1 X121.899 Y95.993 E23.79308
G1 X121.611 Y95.994 E23.80266
G1 X120.86 Y95.915 E23.82778
G1 X120.614 Y95.834 E23.83639
G1 X120.51 Y95.777 E23.84034
G1 X120.156 Y95.842 E23.85231
G1 X117.933 Y95.609 E23.92665
G1 X114.267 Y94.419 E24.05485
G1 X111.421 Y92.774 E24.16418
G1 X111.171 Y92.59 E24.1745
G1 X111.003 Y92.404 E24.18284
G1 X110.939 Y92.295 E24.18704
G1 X110.817 Y92.263 E24.19124
G1 X110.507 Y92.108 E24.20277
G1 X108.069 Y89.907 E24.31201
G1 X105.806 Y86.788 E24.44018
G1 X104.781 Y84.487 E24.52396
G1 X104.716 Y84.2 E24.53375
G1 X104.713 Y84.076 E24.53787
G1 X104.623 Y83.991 E24.54199
G1 X104.449 Y83.732 E24.55237
G1 X104.326 Y83.397 E24.56424
G1 X103.453 Y79.535 E24.69593
G1 X103.455 Y77.872 E24.75124
G1 X103.51 Y77.602 E24.76041
G1 X103.45 Y77.258 E24.77202
G1 X103.453 Y75.65 E24.8255
G1 X104.326 Y71.807 E24.95658
G1 X104.466 Y71.44 E24.96964
G1 X104.624 Y71.211 E24.9789
G1 X104.713 Y71.127 E24.98297
G1 X104.716 Y71.005 E24.98702
G1 X104.776 Y70.73 E24.99639
G1 X105.813 Y68.4 E25.08121
G1 X108.069 Y65.297 E25.20881
G1 X110.385 Y63.206 E25.31259
G1 X110.645 Y63.021 E25.32321
G1 X110.939 Y62.909 E25.33367
G1 X111.003 Y62.8 E25.33787
G1 X111.275 Y62.514 E25.351
G1 X114.264 Y60.786 E25.46583
G1 X119.982 Y58.928 E25.6658
G1 X120.298 Y58.909 E25.67633
G1 X120.548 Y58.938 E25.6847
G1 X120.872 Y59.039 E25.69599
G1 X121.182 Y59.254 E25.70854
G1 X121.768 Y59.195 E25.72813
G1 X124.324 Y59.463 E25.81361
G1 X124.324 Y59.318 E25.81843
G1 X124.125 Y58.389 E25.85003
G1 X123.734 Y57.508 E25.88209
G1 X123.168 Y56.729 E25.91411
G1 X122.457 Y56.088 E25.94595
G1 X121.624 Y55.608 E25.97793
G1 X120.714 Y55.312 E26.00976
G1 X119.764 Y55.219 E26.04151
G1 X117.061 Y55.503 E26.1319
G1 X112.571 Y56.962 E26.28893
G1 X108.475 Y59.327 E26.44624
G1 X107.013 Y60.643 E26.51166
G1 X106.781 Y60.815 E26.52127
G1 X106.523 Y60.931 E26.53068
G1 X106.217 Y61 E26.54111
G1 X97.015 Y61.003 E26.84717
G1 X86.16 Y67.268 E27.26403
G1 X86.16 Y87.993 E27.95334
G1 X97.776 Y94.701 E28.39949
G1 X100.677 Y94.702 E28.49597
G1 X100.769 Y94.61 E28.5003
G1 X101.062 Y94.386 E28.51257
G1 X101.438 Y94.238 E28.52601
G1 X101.656 Y94.205 E28.53334
G1 X106.217 Y94.204 E28.68504
G1 X106.522 Y94.273 E28.69544
G1 X106.78 Y94.389 E28.70485
G1 X107.013 Y94.561 E28.71448
G1 X108.475 Y95.877 E28.77991
G1 X112.571 Y98.242 E28.93722
G1 X117.061 Y99.701 E29.09424
G1 X119.764 Y99.985 E29.18464
G0 F9000 X119.763 Y100.387
G1 F1800 X120.796 Y100.287 E29.21916
G1 X121.787 Y99.964 E29.25383
G1 X122.693 Y99.441 E29.28862
G1 X123.465 Y98.746 E29.32317
G1 X124.082 Y97.897 E29.35808
G1 X124.508 Y96.939 E29.39295
G1 X124.724 Y95.928 E29.42733
G1 X124.724 Y95.295 E29.44839
G1 X121.749 Y95.606 E29.54787
G1 X120.94 Y95.522 E29.57493
G1 X120.555 Y95.341 E29.58908
G1 X120.325 Y95.418 E29.59714
G1 X120.032 Y95.427 E29.60689
G1 X118.015 Y95.21 E29.67437
G1 X114.435 Y94.048 E29.79955
G1 X111.621 Y92.427 E29.90756
G1 X111.323 Y92.163 E29.92081
G1 X111.205 Y91.943 E29.92911
G1 X110.961 Y91.89 E29.93741
G1 X110.653 Y91.701 E29.94943
G1 X108.373 Y89.644 E30.05157
G1 X106.156 Y86.59 E30.17709
G1 X105.153 Y84.326 E30.25945
G1 X105.112 Y84.146 E30.26559
G1 X105.124 Y83.893 E30.27401
G1 X104.928 Y83.733 E30.28243
G1 X104.738 Y83.388 E30.29553
G1 X103.852 Y79.505 E30.42799
G1 X103.852 Y77.922 E30.48064
G1 X103.94 Y77.602 E30.49168
G1 X103.852 Y77.282 E30.50272
G1 X103.852 Y75.699 E30.55537
G1 X104.738 Y71.816 E30.68784
G1 X104.929 Y71.47 E30.70099
G1 X105.123 Y71.31 E30.70935
G1 X105.112 Y71.058 E30.71774
G1 X105.158 Y70.865 E30.72434
G1 X106.165 Y68.606 E30.8066
G1 X108.39 Y65.542 E30.93254
G1 X110.653 Y63.503 E31.03386
G1 X110.961 Y63.314 E31.04588
