;FLAVOR:Marlin
;TIME:1856
;Filament used: 1.61972m
;Layer height: 0.2
;MINX:76.306
;MINY:75.693
;MINZ:0.2
;MAXX:143.695
;MAXY:144.307
;MAXZ:5
;Generated with Cura_SteamEngine 5.4.0
M82 ;absolute extrusion mode
print_start EXTRUDER=200 BED=65.0
G92 E0
G92 E0
G1 F3000 E-5
;LAYER_COUNT:25
;LAYER:0
M107
G0 F9000 X79.475 Y79 Z0.2
;TYPE:SKIRT
G1 F3000 E0
G1 F1800 X80.164 Y78.363 E0.03121
G1 X80.907 Y77.789 E0.06244
G1 X81.667 Y77.301 E0.09248
G1 X82.581 Y76.826 E0.12674
G1 X82.912 Y76.674 E0.13885
G1 X83.799 Y76.314 E0.17069
G1 X84.662 Y76.05 E0.20071
G1 X85.615 Y75.848 E0.23311
G1 X86.54 Y75.737 E0.26409
G1 X87.159 Y75.708 E0.28471
G1 X88.006 Y75.694 E0.31288
G1 X93.894 Y75.693 E0.50872
G1 X94.738 Y75.705 E0.53679
G1 X95.673 Y75.762 E0.56795
G1 X96.602 Y75.901 E0.59919
G1 X97.48 Y76.113 E0.62923
G1 X98.279 Y76.372 E0.65717
G1 X99.151 Y76.718 E0.68837
G1 X99.952 Y77.118 E0.71815
G1 X100.999 Y77.698 E0.75796
G1 X102.703 Y78.623 E0.82244
G1 X104.961 Y79.777 E0.90679
G1 X107.217 Y80.85 E0.98988
G1 X109.576 Y81.891 E1.07564
G1 X111.884 Y82.834 E1.15856
G1 X114.257 Y83.725 E1.24287
G1 X116.669 Y84.554 E1.3277
G1 X119.033 Y85.293 E1.41008
G1 X121.495 Y85.986 E1.49514
G1 X123.983 Y86.61 E1.58046
G1 X126.421 Y87.149 E1.6635
G1 X128.9 Y87.625 E1.74746
G1 X131.443 Y88.038 E1.83315
G1 X132.401 Y88.17 E1.86532
G1 X133.449 Y88.342 E1.90064
G1 X134.368 Y88.539 E1.9319
G1 X135.268 Y88.818 E1.96324
G1 X136.319 Y89.261 E2.00117
G1 X136.858 Y89.525 E2.02114
G1 X137.682 Y89.975 E2.05236
G1 X138.458 Y90.493 E2.08339
G1 X138.937 Y90.867 E2.10361
G1 X139.266 Y91.139 E2.11781
G1 X139.936 Y91.744 E2.14783
G1 X140.798 Y92.701 E2.19067
G1 X141.089 Y93.067 E2.20622
G1 X141.619 Y93.798 E2.23625
G1 X142.118 Y94.631 E2.26855
G1 X142.574 Y95.556 E2.30285
G1 X142.94 Y96.42 E2.33406
G1 X143.229 Y97.315 E2.36534
G1 X143.451 Y98.297 E2.39882
G1 X143.529 Y98.743 E2.41388
G1 X143.648 Y99.67 E2.44497
G1 X143.684 Y100.405 E2.46944
G1 X143.695 Y101.258 E2.49782
G1 X143.694 Y131.316 E3.49755
G1 X143.682 Y132.044 E3.52177
G1 X143.625 Y132.977 E3.55286
G1 X143.534 Y133.634 E3.57492
G1 X143.482 Y133.94 E3.58524
G1 X143.284 Y134.856 E3.61641
G1 X143.043 Y135.645 E3.64385
G1 X142.884 Y136.096 E3.65976
G1 X142.533 Y136.966 E3.69096
G1 X142.124 Y137.771 E3.72099
G1 X141.623 Y138.591 E3.75295
G1 X141.089 Y139.363 E3.78417
G1 X140.512 Y140.057 E3.81419
G1 X140.137 Y140.45 E3.83226
G1 X139.801 Y140.785 E3.84804
G1 X139.101 Y141.42 E3.87947
G1 X138.003 Y142.22 E3.92466
G1 X137.617 Y142.464 E3.93985
G1 X136.802 Y142.929 E3.97105
G1 X135.955 Y143.318 E4.00206
G1 X135.426 Y143.517 E4.02085
G1 X134.987 Y143.668 E4.03629
G1 X134.086 Y143.935 E4.06755
G1 X133.171 Y144.119 E4.09859
G1 X132.225 Y144.234 E4.13029
G1 X131.209 Y144.297 E4.16414
G1 X130.382 Y144.307 E4.19165
G1 X125.498 Y144.306 E4.3541
G1 X124.786 Y144.296 E4.37778
G1 X124.047 Y144.259 E4.40239
G1 X121.005 Y143.997 E4.50394
G1 X118.497 Y143.857 E4.58749
G1 X115.965 Y143.786 E4.67174
G1 X113.453 Y143.788 E4.75528
G1 X110.885 Y143.861 E4.84073
G1 X108.429 Y144.001 E4.92255
G1 X105.6 Y144.245 E5.01699
G1 X104.905 Y144.281 E5.04014
G1 X103.506 Y144.307 E5.08668
G1 X97.206 Y144.306 E5.29622
G1 X96.515 Y144.295 E5.3192
G1 X95.528 Y144.233 E5.3521
G1 X95.039 Y144.179 E5.36846
G1 X94.095 Y144.031 E5.40024
G1 X93.19 Y143.805 E5.43126
G1 X92.614 Y143.616 E5.45143
G1 X92.183 Y143.461 E5.46666
G1 X91.348 Y143.118 E5.49669
G1 X90.128 Y142.456 E5.54285
G1 X89.733 Y142.206 E5.5584
G1 X88.965 Y141.669 E5.58957
G1 X88.272 Y141.09 E5.6196
G1 X87.81 Y140.645 E5.64094
G1 X87.477 Y140.302 E5.65684
G1 X86.877 Y139.627 E5.68688
G1 X86.299 Y138.848 E5.71914
G1 X85.794 Y138.041 E5.7508
G1 X85.342 Y137.218 E5.78203
G1 X84.979 Y136.391 E5.81207
G1 X84.788 Y135.863 E5.83075
G1 X84.645 Y135.429 E5.84594
G1 X84.373 Y134.441 E5.88003
G1 X84.197 Y133.65 E5.90698
G1 X76.685 Y97.194 E7.14499
G1 X76.515 Y96.302 E7.17519
G1 X76.386 Y95.408 E7.20523
G1 X76.334 Y94.566 E7.23329
G1 X76.307 Y93.271 E7.27637
G1 X76.306 Y87.323 E7.4742
G1 X76.317 Y86.638 E7.49699
G1 X76.374 Y85.702 E7.52818
G1 X76.507 Y84.808 E7.55824
G1 X76.638 Y84.217 E7.57837
G1 X76.733 Y83.844 E7.59117
G1 X77.005 Y82.946 E7.62238
G1 X77.354 Y82.075 E7.65359
G1 X77.781 Y81.238 E7.68484
G1 X78.278 Y80.443 E7.71603
G1 X78.821 Y79.722 E7.74605
G1 X79.475 Y79 E7.77845
G0 F9000 X79.747 Y79.293
G1 F1800 X80.409 Y78.679 E7.80848
G1 X81.123 Y78.126 E7.83852
G1 X81.883 Y77.638 E7.86856
G1 X82.748 Y77.19 E7.90096
G1 X83.079 Y77.038 E7.91307
G1 X83.916 Y76.697 E7.94313
G1 X84.779 Y76.433 E7.97315
G1 X85.663 Y76.245 E8.00321
G1 X86.559 Y76.137 E8.03322
G1 X87.166 Y76.108 E8.05344
G1 X88.006 Y76.094 E8.08138
G1 X93.889 Y76.093 E8.27705
G1 X94.714 Y76.104 E8.30449
G1 X95.615 Y76.158 E8.33451
G1 X96.508 Y76.29 E8.36453
G1 X97.386 Y76.502 E8.39458
G1 X98.132 Y76.744 E8.42066
G1 X98.972 Y77.076 E8.4507
G1 X99.758 Y77.468 E8.47992
G1 X100.808 Y78.05 E8.51985
G1 X102.512 Y78.975 E8.58433
G1 X104.789 Y80.138 E8.66937
G1 X107.056 Y81.216 E8.75286
G1 X109.415 Y82.257 E8.83862
G1 X111.743 Y83.208 E8.92227
G1 X114.127 Y84.103 E9.00696
G1 X116.55 Y84.936 E9.09218
G1 X118.914 Y85.675 E9.17456
G1 X121.398 Y86.374 E9.26039
G1 X123.897 Y87.001 E9.34608
G1 X126.335 Y87.54 E9.42913
G1 X128.832 Y88.019 E9.51369
G1 X131.379 Y88.433 E9.59952
G1 X132.337 Y88.565 E9.63168
G1 X133.366 Y88.733 E9.66636
G1 X134.25 Y88.921 E9.69642
G1 X135.113 Y89.187 E9.72645
G1 X136.164 Y89.63 E9.76439
G1 X136.667 Y89.876 E9.78301
G1 X137.46 Y90.308 E9.81305
G1 X138.212 Y90.809 E9.8431
G1 X138.682 Y91.175 E9.86291
G1 X138.998 Y91.436 E9.87655
G1 X139.668 Y92.041 E9.90657
G1 X140.485 Y92.95 E9.94722
G1 X140.765 Y93.302 E9.96218
G1 X141.295 Y94.033 E9.99221
G1 X141.759 Y94.808 E10.02226
G1 X142.206 Y95.713 E10.05583
G1 X142.56 Y96.544 E10.08587
G1 X142.839 Y97.403 E10.11591
G1 X143.057 Y98.366 E10.14875
G1 X143.132 Y98.794 E10.1632
G1 X143.248 Y99.69 E10.19325
G1 X143.284 Y100.41 E10.21723
G1 X143.295 Y101.258 E10.24544
G1 X143.294 Y131.31 E11.24497
G1 X143.283 Y132.02 E11.26859
G1 X143.229 Y132.922 E11.29864
G1 X143.14 Y133.567 E11.3203
G1 X143.091 Y133.856 E11.33005
G1 X142.901 Y134.739 E11.36009
G1 X142.66 Y135.528 E11.38753
G1 X142.513 Y135.947 E11.4023
G1 X142.176 Y136.785 E11.43234
G1 X141.767 Y137.59 E11.46237
G1 X141.294 Y138.364 E11.49254
G1 X140.781 Y139.107 E11.52257
G1 X140.204 Y139.801 E11.55259
G1 X139.855 Y140.167 E11.56941
G1 X139.532 Y140.489 E11.58458
G1 X138.865 Y141.097 E11.6146
G1 X137.789 Y141.882 E11.6589
G1 X137.418 Y142.117 E11.6735
G1 X136.635 Y142.566 E11.70352
G1 X135.814 Y142.944 E11.73358
G1 X135.295 Y143.139 E11.75202
G1 X134.873 Y143.285 E11.76688
G1 X134.007 Y143.543 E11.79693
G1 X133.122 Y143.722 E11.82696
G1 X132.2 Y143.835 E11.85786
G1 X131.204 Y143.897 E11.89105
G1 X130.382 Y143.907 E11.91839
G1 X125.504 Y143.906 E12.08063
G1 X124.806 Y143.896 E12.10385
G1 X124.081 Y143.86 E12.12799
G1 X121.039 Y143.599 E12.22954
G1 X118.508 Y143.457 E12.31386
G1 X115.976 Y143.386 E12.39811
G1 X113.442 Y143.388 E12.48239
G1 X110.874 Y143.461 E12.56783
G1 X108.395 Y143.603 E12.65042
G1 X105.566 Y143.846 E12.74486
G1 X104.898 Y143.881 E12.76711
G1 X103.506 Y143.907 E12.81341
G1 X97.212 Y143.906 E13.02275
G1 X96.54 Y143.896 E13.04511
G1 X95.572 Y143.835 E13.07737
G1 X95.083 Y143.781 E13.09373
G1 X94.191 Y143.643 E13.12375
G1 X93.314 Y143.425 E13.15381
G1 X92.749 Y143.24 E13.17358
G1 X92.335 Y143.091 E13.18822
G1 X91.5 Y142.748 E13.21824
G1 X90.342 Y142.118 E13.26209
G1 X89.962 Y141.878 E13.27703
G1 X89.221 Y141.362 E13.30707
G1 X88.528 Y140.783 E13.3371
G1 X88.097 Y140.366 E13.35705
G1 X87.776 Y140.036 E13.37236
G1 X87.176 Y139.361 E13.4024
G1 X86.638 Y138.636 E13.43243
G1 X86.144 Y137.848 E13.46336
G1 X85.708 Y137.057 E13.4934
G1 X85.345 Y136.23 E13.52344
G1 X85.168 Y135.738 E13.54083
G1 X85.031 Y135.323 E13.55537
G1 X84.759 Y134.335 E13.58945
G1 X84.589 Y133.569 E13.61555
G1 X77.078 Y97.119 E14.85335
G1 X76.911 Y96.245 E14.88294
G1 X76.782 Y95.351 E14.91299
G1 X76.734 Y94.558 E14.93941
G1 X76.707 Y93.271 E14.98223
G1 X76.706 Y87.329 E15.17986
G1 X76.716 Y86.662 E15.20204
G1 X76.77 Y85.761 E15.23207
G1 X76.903 Y84.867 E15.26213
G1 X77.026 Y84.315 E15.28094
G1 X77.116 Y83.959 E15.29315
G1 X77.376 Y83.094 E15.32319
G1 X77.711 Y82.256 E15.35321
G1 X78.12 Y81.45 E15.38327
G1 X78.598 Y80.684 E15.4133
G1 X79.141 Y79.963 E15.44332
G1 X79.747 Y79.293 E15.47337
G1 F3000 E10.47337
;MESH:Fan_Mount_for_H2_remixed_3mm.stl
G0 F9000 X86.515 Y86.055
G0 X87.347 Y86.75
G0 X87.928 Y87.249
;TYPE:WALL-INNER
G1 F3000 E15.47337
G1 F1800 X87.854 Y87.292 E15.47622
G1 X87.928 Y87.335 E15.47906
G1 X87.954 Y87.292 E15.48073
G0 F9000 X87.73 Y87.94
G0 X87.505 Y88.78
G1 F1800 X88.596 Y86.893 E15.55323
G1 X87.505 Y86.893 E15.58952
G1 X87.505 Y88.78 E15.65228
G1 F3000 E10.65228
G0 F9000 X87.73 Y87.94
G0 X88.856 Y86.742
G0 X89.205 Y86.62
;TYPE:WALL-OUTER
G1 F3000 E15.65228
G1 F1104.3 X92.55 Y86.618 E15.83363
G0 F9000 X92.955 Y86.742
G0 X94.016 Y87.286
;TYPE:WALL-INNER
G1 F1469.4 X93.956 Y87.286 E15.83607
G1 X93.925 Y87.338 E15.83854
G1 X93.956 Y87.39 E15.841
G1 X94.016 Y87.39 E15.84345
G1 X94.047 Y87.338 E15.84591
G0 F9000 X94.206 Y88.157
G0 X94.431 Y88.998
G1 F1800 X94.431 Y86.893 E15.91593
G1 X93.215 Y86.893 E15.95637
G1 X94.431 Y88.998 E16.03723
G1 F3000 E11.03723
G0 F9000 X94.206 Y88.157
G0 X94.626 Y89.727
G0 X94.592 Y96.889
G0 X94.83 Y97.765
G0 X95.121 Y98.229
G0 X95.509 Y98.616
G0 X95.971 Y98.908
G0 X96.488 Y99.088
G0 X113.491 Y100.287
G0 X131.112 Y100.268
G0 X131.458 Y100.48
G0 X131.504 Y106.999
G0 X127.774 Y108.183
G1 F3000 E16.03723
G1 F1800 X127.178 Y107.878 E16.05949
G1 X126.926 Y107.695 E16.06985
G1 X126.457 Y107.226 E16.09191
G1 X126.085 Y106.497 E16.11913
G1 X125.95 Y105.673 E16.14691
G1 X126.081 Y104.867 E16.17406
G1 X126.399 Y104.235 E16.1976
G1 X126.568 Y104.009 E16.20698
G1 X126.926 Y103.651 E16.22382
G1 X127.178 Y103.468 E16.23418
G1 X127.631 Y103.236 E16.25111
G1 X127.914 Y103.141 E16.26104
G1 X128.591 Y103.035 E16.28383
G1 X129.25 Y103.138 E16.30601
G1 X129.506 Y103.215 E16.3149
G1 X130.005 Y103.468 E16.33351
G1 X130.255 Y103.652 E16.34384
G1 X130.614 Y104.009 E16.36068
G1 X130.797 Y104.261 E16.37103
G1 X131.029 Y104.715 E16.38799
G1 X131.126 Y105.015 E16.39848
G1 X131.229 Y105.672 E16.4206
G1 X131.124 Y106.348 E16.44335
G1 X131.029 Y106.631 E16.45328
G1 X130.797 Y107.085 E16.47024
G1 X130.614 Y107.337 E16.4806
G1 X130.255 Y107.694 E16.49743
G1 X130.005 Y107.878 E16.50776
G1 X129.551 Y108.109 E16.5247
G1 X129.25 Y108.207 E16.53523
G1 X128.746 Y108.286 E16.5522
G1 X128.491 Y108.293 E16.56068
G1 X127.774 Y108.183 E16.58481
G0 F9000 X128.593 Y107.905
G1 F1800 X127.878 Y107.787 E16.60891
G1 X127.274 Y107.478 E16.63148
G1 X126.776 Y106.972 E16.65509
G1 X126.469 Y106.371 E16.67754
G1 X126.356 Y105.672 E16.70109
G1 X126.465 Y104.99 E16.72406
G1 X126.786 Y104.357 E16.74766
G1 X127.276 Y103.867 E16.77071
G1 X127.899 Y103.548 E16.79399
G1 X128.593 Y103.441 E16.81735
G1 X129.283 Y103.549 E16.84058
G1 X129.906 Y103.867 E16.86384
G1 X130.398 Y104.359 E16.88698
G1 X130.716 Y104.981 E16.91022
G1 X130.824 Y105.671 E16.93345
G1 X130.717 Y106.363 E16.95674
G1 X130.398 Y106.987 E16.98004
G1 X129.906 Y107.479 E17.00319
G1 X129.282 Y107.797 E17.02648
G1 X128.593 Y107.905 E17.04968
G0 F9000 X128.639 Y108.201
G0 X129.356 Y108.028
G0 X129.914 Y107.743
G0 X131.606 Y106.432
G1 F1340.8 X131.647 Y105.898 E17.07359
G1 F1409 X131.659 Y105.6 E17.08626
G1 F1306.7 X131.607 Y104.94 E17.1166
G1 F3000 E12.1166
G0 F9000 X131.504 Y119.369
G0 X128.43 Y117.504
G0 X125.495 Y119.938
G0 X127.367 Y123.619
G0 X131.001 Y122.746
G0 X131.504 Y121.998
G0 X131.534 Y131.724
G0 X131.36 Y132.043
G0 X125.078 Y132.146
G0 X124.761 Y131.974
G0 X123.934 Y107.983
G0 X123.827 Y107.361
G0 X123.5 Y106.689
G0 X123.102 Y106.191
G0 X122.603 Y105.795
G0 X121.924 Y105.47
G0 X121.312 Y105.368
G0 X112.507 Y105.368
G0 X111.867 Y105.508
G0 X111.316 Y105.756
G0 X110.827 Y106.12
G0 X110.429 Y106.579
G0 X110.138 Y107.108
G0 X109.976 Y107.648
G0 X105.004 Y130.325
G0 X102.933 Y132.707
G1 F3000 E17.1166
G1 F1800 X104.417 Y132.707 E17.16595
G1 X104.676 Y132.651 E17.17477
G1 X104.92 Y132.539 E17.1837
G1 X105.113 Y132.362 E17.19241
G1 X105.268 Y132.14 E17.20141
G1 X105.358 Y131.838 E17.21189
G1 X109.81 Y107.658 E18.02964
G1 X109.992 Y107.049 E18.05078
G1 X110.292 Y106.489 E18.07191
G1 X110.712 Y106.004 E18.09325
G1 X111.239 Y105.614 E18.11506
G1 X111.817 Y105.355 E18.13612
G1 X112.487 Y105.207 E18.15894
G1 X121.327 Y105.207 E18.45296
G1 X121.832 Y105.291 E18.46999
G1 X122.101 Y105.376 E18.47937
G1 X122.689 Y105.665 E18.50117
G1 X123.224 Y106.084 E18.52377
G1 X123.627 Y106.59 E18.54528
G1 X123.981 Y107.308 E18.57191
G1 X124.092 Y107.97 E18.59423
G1 X124.095 Y131.651 E19.38187
G1 X124.126 Y131.922 E19.39094
G1 X124.32 Y132.326 E19.40585
G1 X124.664 Y132.601 E19.42049
G1 X124.967 Y132.707 E19.43117
G1 X131.039 Y132.707 E19.63313
G1 X131.314 Y132.676 E19.64233
G1 X131.713 Y132.483 E19.65707
G1 X131.987 Y132.14 E19.67167
G1 X132.095 Y131.834 E19.68247
G1 X132.095 Y100.643 E20.71988
G1 X132.059 Y100.434 E20.72694
G1 X131.936 Y100.18 E20.73632
G1 X131.624 Y99.866 E20.75105
G1 X131.374 Y99.745 E20.76028
G1 X131.157 Y99.707 E20.76761
G1 X96.92 Y99.701 E21.90634
G1 X96.369 Y99.634 E21.9248
G1 X95.731 Y99.419 E21.94719
G1 X95.158 Y99.06 E21.96968
G1 X94.682 Y98.586 E21.99202
G1 X94.322 Y98.012 E22.01456
G1 X94.11 Y97.403 E22.03601
G1 X94.031 Y96.945 E22.05147
G1 X94.031 Y92.079 E22.21331
G1 X93.416 Y93.144 E22.25421
G1 X92.978 Y93.55 E22.27408
G1 X92.55 Y93.644 E22.28865
G1 X89.261 Y93.644 E22.39804
G1 X88.796 Y93.542 E22.41388
G1 X88.394 Y93.145 E22.43267
G1 X87.906 Y92.299 E22.46515
G1 X87.905 Y94.162 E22.52712
G1 X95.114 Y129.147 E23.71517
G1 F1575.5 X95.31 Y129.826 E23.74202
G1 F1406.2 X95.41 Y130.327 E23.76377
G1 F1493.8 X95.425 Y130.522 E23.77161
G1 F1686.2 X95.672 Y131.852 E23.81964
G1 F1800 X95.76 Y132.126 E23.82921
G1 X96.032 Y132.476 E23.84396
G1 X96.43 Y132.673 E23.85873
G1 X96.718 Y132.707 E23.86837
G1 X97.405 Y132.707 E23.89122
G1 X96.672 Y131.439 E23.93994
G1 F1686.2 X95.987 Y130.309 E23.98685
G1 F1493.8 X95.896 Y130.183 E23.99308
G1 F1406.2 X95.82 Y129.778 E24.01063
G1 F1575.5 X96.01 Y129.293 E24.03042
G1 F1800 X97.659 Y126.443 E24.13993
G1 X97.829 Y126.225 E24.14913
G1 X98.021 Y126.08 E24.15713
G1 X98.418 Y125.944 E24.17109
G1 X101.894 Y125.943 E24.2867
G1 X102.224 Y126.031 E24.29806
G1 X102.595 Y126.295 E24.3132
G1 X104.328 Y129.293 E24.42838
G1 X104.465 Y129.78 E24.44521
G1 X104.391 Y130.185 E24.4589
G1 X102.933 Y132.707 E24.55579
G0 F9000 X102.1 Y133.108
G1 F1800 X104.459 Y133.107 E24.63425
G1 X104.802 Y133.033 E24.64592
G1 X105.145 Y132.876 E24.65847
G1 X105.415 Y132.627 E24.67068
G1 X105.633 Y132.317 E24.68329
G1 X105.748 Y131.931 E24.69668
G1 X110.203 Y107.731 E25.51511
G1 X110.361 Y107.203 E25.53344
G1 X110.625 Y106.717 E25.55183
G1 X110.989 Y106.297 E25.57032
G1 X111.44 Y105.962 E25.589
G1 X111.942 Y105.737 E25.6073
G1 X112.529 Y105.607 E25.6273
G1 X121.292 Y105.607 E25.91875
G1 X121.854 Y105.7 E25.9377
G1 X122.476 Y105.999 E25.96066
G1 X122.943 Y106.371 E25.98051
G1 X123.306 Y106.841 E26.00027
G1 X123.601 Y107.453 E26.02286
G1 X123.693 Y108.003 E26.04141
G1 X123.695 Y131.673 E26.82868
G1 X123.734 Y132.011 E26.83999
G1 X123.839 Y132.312 E26.8506
G1 X124.005 Y132.578 E26.86102
G1 X124.226 Y132.798 E26.8714
G1 X124.488 Y132.963 E26.88169
G1 X124.896 Y133.107 E26.89608
G1 X131.062 Y133.107 E27.10117
G1 X131.403 Y133.068 E27.11258
G1 X131.699 Y132.965 E27.12301
G1 X131.964 Y132.798 E27.13342
G1 X132.185 Y132.578 E27.1438
G1 X132.35 Y132.315 E27.15412
G1 X132.495 Y131.904 E27.16862
G1 X132.495 Y100.609 E28.20949
G1 X132.443 Y100.312 E28.21952
G1 X132.278 Y99.966 E28.23227
G1 X132.084 Y99.723 E28.24261
G1 X131.839 Y99.526 E28.25307
G1 X131.498 Y99.36 E28.26568
G1 X131.191 Y99.307 E28.27605
G1 X96.964 Y99.304 E29.41444
G1 X96.457 Y99.243 E29.43143
G1 X95.902 Y99.054 E29.45093
G1 X95.408 Y98.744 E29.47032
G1 X94.995 Y98.334 E29.48968
G1 X94.683 Y97.835 E29.50925
G1 X94.493 Y97.269 E29.52911
G1 X94.431 Y96.912 E29.54116
G1 X94.431 Y90.588 E29.7515
G1 X93.07 Y92.944 E29.842
