;FLAVOR:Marlin
;TIME:1887
;Filament used: 1.62489m
;Layer height: 0.2
;MINX:76.305
;MINY:75.694
;MINZ:0.2
;MAXX:143.695
;MAXY:144.306
;MAXZ:5
;Generated with Cura_SteamEngine 5.4.0
M82 ;absolute extrusion mode
print_start EXTRUDER=200 BED=65.0
G92 E0
G92 E0
G1 F3000 E-5
;LAYER_COUNT:25
;LAYER:0
M107
G0 F9000 X79.465 Y79.008 Z0.2
;TYPE:SKIRT
G1 F3000 E0
G1 F1800 X80.154 Y78.37 E0.03123
G1 X80.896 Y77.797 E0.06241
G1 X81.688 Y77.289 E0.09371
G1 X82.606 Y76.814 E0.12809
G1 X82.953 Y76.656 E0.14077
G1 X83.824 Y76.306 E0.17199
G1 X84.722 Y76.034 E0.2032
G1 X85.606 Y75.849 E0.23324
G1 X86.567 Y75.735 E0.26542
G1 X87.167 Y75.708 E0.2854
G1 X87.986 Y75.695 E0.31264
G1 X93.897 Y75.694 E0.50924
G1 X94.721 Y75.705 E0.53665
G1 X95.658 Y75.76 E0.56787
G1 X96.586 Y75.899 E0.59908
G1 X97.497 Y76.118 E0.63024
G1 X98.312 Y76.385 E0.65877
G1 X99.205 Y76.745 E0.69079
G1 X99.964 Y77.128 E0.71907
G1 X100.954 Y77.679 E0.75675
G1 X103.224 Y78.9 E0.84248
G1 X105.498 Y80.044 E0.92715
G1 X107.79 Y81.117 E1.01132
G1 X110.114 Y82.123 E1.09555
G1 X112.461 Y83.065 E1.17966
G1 X114.818 Y83.932 E1.26319
G1 X117.204 Y84.735 E1.34692
G1 X119.664 Y85.484 E1.43245
G1 X122.064 Y86.144 E1.51524
G1 X124.591 Y86.76 E1.60175
G1 X127.03 Y87.283 E1.68471
G1 X129.446 Y87.731 E1.76644
G1 X133.251 Y88.302 E1.89441
G1 X134.137 Y88.475 E1.92444
G1 X135.08 Y88.75 E1.95711
G1 X136.29 Y89.247 E2.00062
G1 X136.855 Y89.523 E2.02153
G1 X137.679 Y89.973 E2.05276
G1 X138.431 Y90.474 E2.08281
G1 X138.906 Y90.842 E2.1028
G1 X139.324 Y91.185 E2.12078
G1 X140.022 Y91.813 E2.15201
G1 X140.661 Y92.5 E2.18321
G1 X141.234 Y93.235 E2.21421
G1 X141.549 Y93.703 E2.23298
G1 X141.856 Y94.19 E2.25212
G1 X142.32 Y95.005 E2.28332
G1 X142.709 Y95.852 E2.31432
G1 X142.911 Y96.39 E2.33343
G1 X143.062 Y96.828 E2.34884
G1 X143.328 Y97.736 E2.38031
G1 X143.56 Y99.02 E2.42371
G1 X143.616 Y99.506 E2.43998
G1 X143.684 Y100.556 E2.47497
G1 X143.695 Y101.418 E2.50365
G1 X143.694 Y131.316 E3.49806
G1 X143.682 Y132.044 E3.52227
G1 X143.625 Y132.977 E3.55336
G1 X143.534 Y133.634 E3.57542
G1 X143.482 Y133.94 E3.58575
G1 X143.284 Y134.856 E3.61692
G1 X143.04 Y135.654 E3.64467
G1 X142.887 Y136.088 E3.65998
G1 X142.537 Y136.958 E3.69117
G1 X142.128 Y137.763 E3.7212
G1 X141.84 Y138.246 E3.7399
G1 X141.587 Y138.644 E3.75559
G1 X141.048 Y139.413 E3.78682
G1 X140.446 Y140.129 E3.81794
G1 X139.713 Y140.872 E3.85265
G1 X139.018 Y141.503 E3.88387
G1 X138.27 Y142.069 E3.91507
G1 X137.506 Y142.55 E3.9451
G1 X136.838 Y142.901 E3.9702
G1 X136.241 Y143.187 E3.99221
G1 X135.378 Y143.553 E4.02339
G1 X134.483 Y143.843 E4.05468
G1 X133.465 Y144.071 E4.08938
G1 X133.034 Y144.145 E4.10393
G1 X132.108 Y144.261 E4.13497
G1 X131.423 Y144.294 E4.15777
G1 X130.72 Y144.305 E4.18116
G1 X125.639 Y144.306 E4.35015
G1 X124.78 Y144.295 E4.37873
G1 X124.041 Y144.258 E4.40334
G1 X121.033 Y143.999 E4.50375
G1 X118.525 Y143.859 E4.5873
G1 X115.994 Y143.788 E4.67151
G1 X113.482 Y143.79 E4.75506
G1 X110.914 Y143.863 E4.84051
G1 X108.462 Y144.003 E4.9222
G1 X106.887 Y144.147 E4.9748
G1 X106.459 Y144.167 E4.98905
G1 X105.445 Y144.255 E5.0229
G1 X104.853 Y144.29 E5.04263
G1 X104.241 Y144.304 E5.06299
G1 X97.209 Y144.306 E5.29687
G1 X96.342 Y144.294 E5.32571
G1 X95.41 Y144.238 E5.35677
G1 X94.723 Y144.144 E5.37983
G1 X94.407 Y144.09 E5.39049
G1 X93.492 Y143.889 E5.42165
G1 X92.688 Y143.641 E5.44964
G1 X92.258 Y143.489 E5.4648
G1 X91.387 Y143.137 E5.49605
G1 X90.559 Y142.713 E5.52699
G1 X90.124 Y142.452 E5.54386
G1 X89.713 Y142.191 E5.56006
G1 X88.945 Y141.653 E5.59124
G1 X88.253 Y141.073 E5.62128
G1 X87.823 Y140.658 E5.64115
G1 X87.42 Y140.245 E5.66034
G1 X86.795 Y139.544 E5.69158
G1 X86.235 Y138.791 E5.72279
G1 X85.761 Y138.022 E5.75284
G1 X85.396 Y137.308 E5.77951
G1 X85.126 Y136.725 E5.80088
G1 X84.783 Y135.89 E5.8309
G1 X84.4 Y134.575 E5.87646
G1 X84.204 Y133.686 E5.90674
G1 X76.68 Y97.173 E7.14668
G1 X76.519 Y96.335 E7.17506
G1 X76.389 Y95.441 E7.20511
G1 X76.336 Y94.599 E7.23317
G1 X76.305 Y93.127 E7.28214
G1 X76.306 Y87.299 E7.47598
G1 X76.317 Y86.634 E7.4981
G1 X76.374 Y85.698 E7.52929
G1 X76.508 Y84.805 E7.55932
G1 X76.635 Y84.231 E7.57887
G1 X76.73 Y83.856 E7.59174
G1 X77 Y82.958 E7.62293
G1 X77.334 Y82.119 E7.65296
G1 X77.773 Y81.25 E7.68535
G1 X78.27 Y80.454 E7.71656
G1 X78.836 Y79.704 E7.74781
G1 X79.465 Y79.008 E7.77901
G0 F9000 X79.737 Y79.301
G1 F1800 X80.399 Y78.686 E7.80906
G1 X81.112 Y78.133 E7.83908
G1 X81.872 Y77.644 E7.86913
G1 X82.772 Y77.178 E7.90284
G1 X83.103 Y77.027 E7.91494
G1 X83.94 Y76.689 E7.94497
G1 X84.804 Y76.426 E7.975
G1 X85.688 Y76.241 E8.00504
G1 X86.585 Y76.135 E8.03509
G1 X87.173 Y76.108 E8.05466
G1 X87.986 Y76.095 E8.08171
G1 X93.892 Y76.094 E8.27814
G1 X94.698 Y76.104 E8.30495
G1 X95.6 Y76.156 E8.335
G1 X96.493 Y76.288 E8.36503
G1 X97.372 Y76.498 E8.39508
G1 X98.187 Y76.765 E8.42361
G1 X99.025 Y77.102 E8.45365
G1 X99.769 Y77.477 E8.48136
G1 X100.764 Y78.031 E8.51924
G1 X103.033 Y79.252 E8.60494
G1 X105.328 Y80.406 E8.69038
G1 X107.631 Y81.484 E8.77495
G1 X109.955 Y82.49 E8.85918
G1 X112.312 Y83.436 E8.94365
G1 X114.69 Y84.311 E9.02793
G1 X117.087 Y85.118 E9.11205
G1 X119.546 Y85.867 E9.19755
G1 X121.969 Y86.533 E9.28113
G1 X124.496 Y87.149 E9.36764
G1 X126.945 Y87.674 E9.45094
G1 X129.387 Y88.127 E9.53355
G1 X133.174 Y88.695 E9.66091
G1 X134.06 Y88.868 E9.69094
G1 X134.928 Y89.12 E9.721
G1 X136.138 Y89.617 E9.76451
G1 X136.664 Y89.874 E9.78398
G1 X137.457 Y90.306 E9.81401
G1 X138.209 Y90.807 E9.84407
G1 X138.652 Y91.151 E9.86272
G1 X139.057 Y91.483 E9.88014
G1 X139.73 Y92.086 E9.91019
G1 X140.346 Y92.746 E9.94022
G1 X140.902 Y93.458 E9.97027
G1 X141.211 Y93.917 E9.98867
G1 X141.509 Y94.388 E10.00721
G1 X141.957 Y95.172 E10.03724
G1 X142.335 Y95.993 E10.0673
G1 X142.533 Y96.52 E10.08603
G1 X142.678 Y96.941 E10.10084
G1 X142.934 Y97.807 E10.13087
G1 X143.166 Y99.091 E10.17427
G1 X143.217 Y99.532 E10.18904
G1 X143.284 Y100.561 E10.22333
G1 X143.295 Y101.418 E10.25184
G1 X143.294 Y131.31 E11.24605
G1 X143.283 Y132.02 E11.26967
G1 X143.229 Y132.922 E11.29972
G1 X143.14 Y133.567 E11.32138
G1 X143.091 Y133.856 E11.33113
G1 X142.901 Y134.739 E11.36117
G1 X142.662 Y135.522 E11.3884
G1 X142.516 Y135.939 E11.40309
G1 X142.18 Y136.777 E11.43312
G1 X141.771 Y137.582 E11.46315
G1 X141.502 Y138.032 E11.48059
G1 X141.259 Y138.415 E11.49568
G1 X140.742 Y139.156 E11.52573
G1 X140.161 Y139.848 E11.55578
G1 X139.444 Y140.576 E11.58977
G1 X138.776 Y141.184 E11.61981
G1 X138.057 Y141.73 E11.64984
G1 X137.293 Y142.211 E11.67987
G1 X136.665 Y142.54 E11.70345
G1 X136.084 Y142.819 E11.72488
G1 X135.254 Y143.173 E11.75489
G1 X134.395 Y143.453 E11.78494
G1 X133.397 Y143.677 E11.81896
G1 X132.984 Y143.748 E11.8329
G1 X132.088 Y143.861 E11.86294
G1 X131.417 Y143.894 E11.88528
G1 X130.72 Y143.905 E11.90847
G1 X125.644 Y143.906 E12.0773
G1 X124.8 Y143.895 E12.10537
G1 X124.075 Y143.859 E12.12951
G1 X121.067 Y143.601 E12.22993
G1 X118.536 Y143.459 E12.31424
G1 X116.005 Y143.388 E12.39846
G1 X113.471 Y143.39 E12.48274
G1 X110.903 Y143.463 E12.56818
G1 X108.434 Y143.604 E12.65044
G1 X106.868 Y143.747 E12.70274
G1 X106.44 Y143.767 E12.71699
G1 X105.421 Y143.856 E12.75101
G1 X104.844 Y143.89 E12.77024
G1 X104.241 Y143.904 E12.7903
G1 X97.214 Y143.906 E13.02402
G1 X96.365 Y143.895 E13.05226
G1 X95.464 Y143.842 E13.08228
G1 X94.79 Y143.75 E13.1049
G1 X94.492 Y143.699 E13.11496
G1 X93.61 Y143.507 E13.14498
G1 X92.821 Y143.264 E13.17244
G1 X92.407 Y143.118 E13.18704
G1 X91.569 Y142.781 E13.21708
G1 X90.765 Y142.37 E13.24711
G1 X90.338 Y142.114 E13.26367
G1 X89.942 Y141.863 E13.27927
G1 X89.202 Y141.346 E13.30929
G1 X88.51 Y140.766 E13.33932
G1 X88.109 Y140.378 E13.35788
G1 X87.718 Y139.978 E13.37648
G1 X87.116 Y139.305 E13.40652
G1 X86.576 Y138.581 E13.43656
G1 X86.102 Y137.812 E13.4666
G1 X85.759 Y137.14 E13.4917
G1 X85.496 Y136.573 E13.51248
G1 X85.153 Y135.738 E13.54251
G1 X84.791 Y134.489 E13.58576
G1 X84.596 Y133.605 E13.61587
G1 X77.073 Y97.097 E14.85564
G1 X76.915 Y96.277 E14.88342
G1 X76.785 Y95.383 E14.91346
G1 X76.736 Y94.591 E14.93986
G1 X76.705 Y93.127 E14.98856
G1 X76.706 Y87.305 E15.1822
G1 X76.716 Y86.658 E15.20372
G1 X76.77 Y85.757 E15.23374
G1 X76.904 Y84.864 E15.26378
G1 X77.023 Y84.329 E15.28201
G1 X77.113 Y83.971 E15.29428
G1 X77.372 Y83.106 E15.32432
G1 X77.706 Y82.267 E15.35435
G1 X78.113 Y81.461 E15.38438
G1 X78.59 Y80.694 E15.41442
G1 X79.133 Y79.972 E15.44447
G1 X79.737 Y79.301 E15.4745
G1 F3000 E10.4745
;MESH:Fan_Mount_for_H2_2mm.stl
G0 F9000 X86.512 Y86.059
G0 X87.348 Y86.75
G0 X87.928 Y87.25
;TYPE:WALL-INNER
G1 F3000 E15.4745
G1 F1800 X87.854 Y87.293 E15.47735
G1 X87.928 Y87.336 E15.48019
G1 X87.954 Y87.293 E15.48186
G0 F9000 X87.73 Y87.941
G0 X87.505 Y88.781
G1 F1800 X88.596 Y86.894 E15.55436
G1 X87.505 Y86.894 E15.59065
G1 X87.505 Y88.781 E15.65341
G1 F3000 E10.65341
G0 F9000 X87.73 Y87.941
G0 X88.856 Y86.743
G0 X89.205 Y86.621
;TYPE:WALL-OUTER
G1 F3000 E15.65341
G1 F1104.3 X92.55 Y86.619 E15.83476
G0 F9000 X92.955 Y86.743
G0 X94.016 Y87.287
;TYPE:WALL-INNER
G1 F1469.4 X93.956 Y87.287 E15.8372
G1 X93.925 Y87.339 E15.83967
G1 X93.956 Y87.391 E15.84213
G1 X94.016 Y87.391 E15.84458
G1 X94.047 Y87.339 E15.84704
G0 F9000 X94.206 Y88.158
G0 X94.431 Y88.999
G1 F1800 X94.431 Y86.894 E15.91706
G1 X93.215 Y86.894 E15.9575
G1 X94.431 Y88.999 E16.03836
G1 F3000 E11.03836
G0 F9000 X94.206 Y88.158
G0 X94.626 Y89.728
G0 X92.546 Y94.204
G0 X88.471 Y94.047
G0 X95.636 Y128.772
G0 X98.366 Y125.383
G0 X103.167 Y126.163
G0 X105.098 Y129.812
G0 X110.815 Y105.23
G0 X119.958 Y104.625
G0 X124.584 Y107.502
G0 X124.656 Y131.725
G0 X125.024 Y132.144
G0 X131.161 Y132.144
G0 X131.534 Y131.72
G0 X131.504 Y107.999
G0 X127.775 Y109.182
G1 F3000 E16.03836
G1 F1800 X127.178 Y108.876 E16.06067
G1 X126.928 Y108.695 E16.07093
G1 X126.568 Y108.336 E16.08784
G1 X126.384 Y108.082 E16.09828
G1 X126.138 Y107.601 E16.11625
G1 X126.057 Y107.344 E16.12521
G1 X125.95 Y106.665 E16.14807
G1 X126.085 Y105.86 E16.17522
G1 X126.454 Y105.123 E16.20263
G1 X126.925 Y104.652 E16.22479
G1 X127.176 Y104.47 E16.2351
G1 X127.632 Y104.236 E16.25214
G1 X127.916 Y104.14 E16.26212
G1 X128.595 Y104.035 E16.28497
G1 X129.418 Y104.168 E16.3127
G1 X130.006 Y104.47 E16.33468
G1 X130.257 Y104.652 E16.34499
G1 X130.614 Y105.009 E16.36179
G1 X130.797 Y105.261 E16.37214
G1 X131.029 Y105.715 E16.3891
G1 X131.126 Y106.014 E16.39956
G1 X131.229 Y106.668 E16.42158
G1 X131.124 Y107.348 E16.44446
G1 X131.029 Y107.631 E16.45439
G1 X130.798 Y108.082 E16.47124
G1 X130.613 Y108.335 E16.48167
G1 X130.253 Y108.695 E16.4986
G1 X130.004 Y108.876 E16.50884
G1 X129.55 Y109.109 E16.52581
G1 X129.249 Y109.207 E16.53634
G1 X128.747 Y109.286 E16.55324
G1 X128.491 Y109.293 E16.56176
G1 X127.775 Y109.182 E16.58586
G0 F9000 X128.594 Y108.905
G1 F1800 X127.883 Y108.788 E16.60983
G1 X127.278 Y108.478 E16.63244
G1 X126.783 Y107.984 E16.6557
G1 X126.472 Y107.375 E16.67844
G1 X126.355 Y106.674 E16.70208
G1 X126.469 Y105.981 E16.72544
G1 X126.777 Y105.371 E16.74817
G1 X127.272 Y104.87 E16.77159
G1 X127.903 Y104.547 E16.79517
G1 X128.592 Y104.439 E16.81836
G1 X129.287 Y104.551 E16.84178
G1 X129.909 Y104.87 E16.86503
G1 X130.398 Y105.359 E16.88803
G1 X130.716 Y105.98 E16.91123
G1 X130.825 Y106.667 E16.93437
G1 X130.717 Y107.363 E16.95779
G1 X130.399 Y107.984 E16.981
G1 X129.905 Y108.477 E17.00421
G1 X129.281 Y108.797 E17.02754
G1 X128.594 Y108.905 E17.05067
G0 F9000 X128.64 Y109.201
G0 X129.357 Y109.027
G0 X129.915 Y108.742
G0 X131.606 Y107.432
G1 F1304.3 X131.66 Y106.609 E17.08852
G1 F1306.7 X131.607 Y105.938 E17.11936
G1 F3000 E12.11936
G0 F9000 X131.504 Y120.369
G0 X128.43 Y118.504
G0 X125.495 Y120.938
G0 X127.37 Y124.619
G0 X131.001 Y123.746
G0 X131.504 Y122.998
G0 X131.534 Y131.72
G0 X131.345 Y132.056
G0 X125.024 Y132.144
G0 X124.718 Y131.918
G0 X123.934 Y107.989
G0 X123.859 Y107.548
G0 X123.658 Y106.971
G0 X123.23 Y106.294
G0 X122.608 Y105.799
G0 X122.035 Y105.522
G0 X121.357 Y105.367
G0 X112.513 Y105.367
G0 X111.866 Y105.507
G0 X111.315 Y105.758
G0 X110.828 Y106.119
G0 X110.43 Y106.578
G0 X110.137 Y107.107
G0 X109.976 Y107.648
G0 X105.004 Y130.324
G0 X102.935 Y132.705
G1 F3000 E17.11936
G1 F1800 X104.422 Y132.706 E17.16882
G1 X104.675 Y132.65 E17.17744
G1 X104.921 Y132.539 E17.18641
G1 X105.111 Y132.363 E17.19503
G1 X105.269 Y132.138 E17.20417
G1 X105.358 Y131.837 E17.21461
G1 X109.81 Y107.655 E18.03243
G1 X109.99 Y107.051 E18.05339
G1 X110.295 Y106.485 E18.07477
G1 X110.714 Y106.001 E18.09606
G1 X111.237 Y105.615 E18.11768
G1 X111.818 Y105.352 E18.1389
G1 X112.492 Y105.206 E18.16183
G1 X121.376 Y105.206 E18.45732
G1 X122.096 Y105.371 E18.48188
G1 X122.705 Y105.668 E18.50442
G1 X123.22 Y106.077 E18.52629
G1 X123.4 Y106.257 E18.53476
G1 X123.809 Y106.915 E18.56053
G1 X124.017 Y107.509 E18.58146
G1 X124.096 Y107.984 E18.59748
G1 X124.095 Y131.835 E19.39076
G1 X124.219 Y132.192 E19.40333
G1 X124.392 Y132.407 E19.41251
G1 X124.565 Y132.545 E19.41987
G1 X124.83 Y132.674 E19.42968
G1 X125.023 Y132.706 E19.43618
G1 X131.165 Y132.706 E19.64047
G1 X131.362 Y132.672 E19.64712
G1 X131.673 Y132.522 E19.6586
G1 X131.873 Y132.323 E19.66798
G1 X131.987 Y132.143 E19.67507
G1 X132.095 Y131.833 E19.68599
G1 X132.095 Y100.762 E20.71941
G1 X132.063 Y100.487 E20.72862
G1 X131.99 Y100.276 E20.73605
G1 X131.842 Y100.041 E20.74529
G1 X131.622 Y99.866 E20.75464
G1 X131.376 Y99.747 E20.76372
G1 X131.036 Y99.706 E20.77512
G1 X96.793 Y99.706 E21.91404
G1 X96.337 Y99.628 E21.92943
G1 X95.724 Y99.414 E21.95102
G1 X95.161 Y99.061 E21.97313
G1 X94.562 Y98.465 E22.00123
G1 X94.138 Y97.586 E22.03369
G1 X94.031 Y96.941 E22.05544
G1 X94.031 Y92.08 E22.21711
G1 X93.416 Y93.144 E22.25799
G1 X92.978 Y93.549 E22.27783
G1 X92.55 Y93.643 E22.2924
G1 X89.261 Y93.643 E22.4018
G1 X88.799 Y93.541 E22.41753
G1 X88.394 Y93.144 E22.4364
G1 X87.906 Y92.299 E22.46885
G1 X87.905 Y94.167 E22.53098
G1 X95.114 Y129.148 E23.7189
G1 F1572.1 X95.309 Y129.827 E23.74581
G1 F1403.5 X95.409 Y130.328 E23.7676
G1 F1490.7 X95.425 Y130.522 E23.77542
G1 F1682.2 X95.694 Y131.966 E23.82769
G1 F1800 X95.836 Y132.274 E23.83897
G1 X96.031 Y132.476 E23.84831
G1 X96.221 Y132.596 E23.85578
G1 X96.528 Y132.705 E23.86662
G1 X97.404 Y132.705 E23.89575
G1 X96.713 Y131.51 E23.94167
G1 F1682.2 X95.986 Y130.309 E23.99163
G1 F1490.7 X95.896 Y130.183 E23.99785
G1 F1403.5 X95.819 Y129.779 E24.01539
G1 F1572.1 X96.01 Y129.293 E24.03528
G1 F1800 X97.659 Y126.443 E24.14479
G1 X97.829 Y126.224 E24.15401
G1 X98.021 Y126.079 E24.16202
G1 X98.42 Y125.944 E24.17603
G1 X101.894 Y125.943 E24.29157
G1 X102.224 Y126.031 E24.30293
G1 X102.594 Y126.293 E24.31801
G1 X104.328 Y129.293 E24.43326
G1 X104.465 Y129.781 E24.45012
G1 X104.391 Y130.185 E24.46378
G1 X102.935 Y132.705 E24.56058
G0 F9000 X102.103 Y133.106
G1 F1800 X104.465 Y133.106 E24.63914
G1 X104.802 Y133.032 E24.65061
G1 X105.145 Y132.876 E24.66315
G1 X105.413 Y132.628 E24.67529
G1 X105.634 Y132.315 E24.68803
G1 X105.748 Y131.931 E24.70136
G1 X110.203 Y107.727 E25.51991
G1 X110.357 Y107.2 E25.53817
G1 X110.626 Y106.715 E25.55662
G1 X110.99 Y106.294 E25.57513
G1 X111.438 Y105.964 E25.59363
G1 X111.946 Y105.734 E25.61218
G1 X112.533 Y105.606 E25.63216
G1 X121.33 Y105.606 E25.92475
G1 X121.96 Y105.75 E25.94625
G1 X122.486 Y106.005 E25.96569
G1 X123.059 Y106.467 E25.99017
G1 X123.428 Y107.058 E26.01334
G1 X123.63 Y107.614 E26.03302
G1 X123.696 Y108.057 E26.04792
G1 X123.695 Y131.905 E26.8411
G1 X123.864 Y132.388 E26.85812
G1 X124.107 Y132.692 E26.87107
G1 X124.35 Y132.885 E26.88139
G1 X124.708 Y133.059 E26.89463
G1 X124.99 Y133.106 E26.90414
G1 X131.199 Y133.106 E27.11065
G1 X131.485 Y133.056 E27.12031
G1 X131.907 Y132.853 E27.13588
G1 X132.187 Y132.575 E27.149
G1 X132.35 Y132.318 E27.15913
G1 X132.495 Y131.902 E27.17378
G1 X132.495 Y100.739 E28.21026
G1 X132.456 Y100.398 E28.22168
G1 X132.352 Y100.102 E28.23212
G1 X132.144 Y99.77 E28.24515
G1 X131.837 Y99.526 E28.25819
G1 X131.49 Y99.358 E28.27101
G1 X131.06 Y99.306 E28.28542
G1 X96.821 Y99.306 E29.42421
G1 X96.396 Y99.225 E29.4386
G1 X95.9 Y99.052 E29.45607
G1 X95.411 Y98.745 E29.47528
G1 X94.892 Y98.229 E29.49962
G1 X94.523 Y97.466 E29.52781
G1 X94.431 Y96.913 E29.54645
