;FLAVOR:Marlin
;TIME:3014
;Filament used: 4.61534m
;Layer height: 0.28
;MINX:60.9
;MINY:90.865
;MINZ:0.28
;MAXX:159.1
;MAXY:138.265
;MAXZ:25.48
;Generated with Cura_SteamEngine 5.4.0
M82 ;absolute extrusion mode
print_start EXTRUDER=220.0 BED=70.0
G92 E0
G92 E0
G1 F3000 E-6
;LAYER_COUNT:91
;LAYER:0
M107
G0 F9000 X65.824 Y92.711 Z0.28
;TYPE:SKIRT
G1 F3000 E0
G1 X66.721 Y92.176 E0.04863
G1 X67.599 Y91.755 E0.09397
G1 X68.512 Y91.413 E0.13937
G1 X69.449 Y91.154 E0.18464
G1 X70.416 Y90.976 E0.23042
G1 X71.555 Y90.88 E0.28365
G1 X72.212 Y90.865 E0.31425
G1 X147.404 Y90.865 E3.8155
G1 X148.284 Y90.878 E3.85648
G1 X149.256 Y90.937 E3.90183
G1 X150.219 Y91.083 E3.94718
G1 X151.166 Y91.314 E3.99257
G1 X152.054 Y91.614 E4.03621
G1 X152.946 Y92.004 E4.08155
G1 X153.829 Y92.491 E4.1285
G1 X154.58 Y92.993 E4.17056
G1 X155.395 Y93.651 E4.21934
G1 X156.093 Y94.329 E4.26465
G1 X156.729 Y95.066 E4.30998
G1 X157.299 Y95.856 E4.35534
G1 X157.761 Y96.632 E4.39739
G1 X158.215 Y97.574 E4.44608
G1 X158.544 Y98.452 E4.48974
G1 X158.813 Y99.424 E4.53671
G1 X158.99 Y100.39 E4.58244
G1 X159.085 Y101.52 E4.63524
G1 X159.1 Y102.195 E4.66668
G1 X159.099 Y126.665 E5.8061
G1 X159.088 Y127.428 E5.84164
G1 X159.031 Y128.401 E5.88702
G1 X158.886 Y129.364 E5.93237
G1 X158.657 Y130.31 E5.97769
G1 X158.346 Y131.234 E6.02309
G1 X157.954 Y132.125 E6.06841
G1 X157.486 Y132.977 E6.11368
G1 X156.964 Y133.758 E6.15742
G1 X156.331 Y134.543 E6.20437
G1 X155.706 Y135.194 E6.2464
G1 X154.917 Y135.882 E6.29514
G1 X154.157 Y136.432 E6.33882
G1 X153.29 Y136.949 E6.38583
G1 X152.412 Y137.371 E6.43119
G1 X151.501 Y137.713 E6.4765
G1 X150.562 Y137.974 E6.52188
G1 X149.596 Y138.152 E6.56762
G1 X148.445 Y138.25 E6.62141
G1 X147.77 Y138.265 E6.65285
G1 X72.464 Y138.264 E10.15941
G1 X71.731 Y138.253 E10.19355
G1 X70.759 Y138.196 E10.23888
G1 X69.796 Y138.05 E10.28424
G1 X68.85 Y137.821 E10.32956
G1 X67.926 Y137.509 E10.37497
G1 X67.036 Y137.117 E10.42026
G1 X66.213 Y136.666 E10.46395
G1 X65.374 Y136.105 E10.51095
G1 X64.67 Y135.539 E10.55301
G1 X63.917 Y134.814 E10.60169
G1 X63.28 Y134.078 E10.64701
G1 X62.75 Y133.347 E10.68905
G1 X62.214 Y132.45 E10.73771
G1 X61.792 Y131.572 E10.78307
G1 X61.45 Y130.66 E10.82843
G1 X61.19 Y129.722 E10.87375
G1 X61.012 Y128.753 E10.91963
G1 X60.914 Y127.574 E10.97471
G1 X60.9 Y126.923 E11.00503
G1 X60.901 Y102.39 E12.14739
G1 X60.912 Y101.69 E12.17999
G1 X60.97 Y100.717 E12.22538
G1 X61.116 Y99.754 E12.27073
G1 X61.346 Y98.808 E12.31607
G1 X61.659 Y97.885 E12.36145
G1 X62.051 Y96.995 E12.40673
G1 X62.521 Y96.142 E12.45208
G1 X63.064 Y95.334 E12.49741
G1 X63.631 Y94.63 E12.5395
G1 X64.356 Y93.878 E12.58814
G1 X65.092 Y93.241 E12.63347
G1 X65.824 Y92.711 E12.67555
G0 F9000 X66.059 Y93.035
G1 F3000 X66.895 Y92.536 E12.72088
G1 X67.74 Y92.129 E12.76456
G1 X68.619 Y91.798 E12.80829
G1 X69.522 Y91.547 E12.85194
G1 X70.45 Y91.375 E12.89588
G1 X71.589 Y91.279 E12.94911
G1 X72.221 Y91.265 E12.97854
G1 X147.398 Y91.265 E16.4791
G1 X148.26 Y91.277 E16.51924
G1 X149.197 Y91.333 E16.56295
G1 X150.125 Y91.472 E16.60664
G1 X151.038 Y91.693 E16.65038
G1 X151.894 Y91.981 E16.69244
G1 X152.786 Y92.371 E16.73777
G1 X153.607 Y92.824 E16.78143
G1 X154.358 Y93.326 E16.8235
G1 X155.117 Y93.938 E16.8689
G1 X155.791 Y94.591 E16.91259
G1 X156.405 Y95.3 E16.95627
G1 X156.955 Y96.061 E16.99999
G1 X157.417 Y96.837 E17.04204
G1 X157.84 Y97.714 E17.08738
G1 X158.169 Y98.592 E17.13104
G1 X158.42 Y99.497 E17.17477
G1 X158.591 Y100.424 E17.21866
G1 X158.686 Y101.554 E17.27147
G1 X158.7 Y102.195 E17.30132
G1 X158.699 Y126.66 E18.44051
G1 X158.689 Y127.405 E18.47521
G1 X158.635 Y128.342 E18.51891
G1 X158.497 Y129.271 E18.56264
G1 X158.278 Y130.183 E18.60632
G1 X157.98 Y131.073 E18.65002
G1 X157.603 Y131.933 E18.69375
G1 X157.153 Y132.755 E18.73738
G1 X156.631 Y133.536 E18.78112
G1 X156.042 Y134.266 E18.8248
G1 X155.417 Y134.917 E18.86682
G1 X154.682 Y135.558 E18.91223
G1 X153.922 Y136.108 E18.95592
G1 X153.116 Y136.589 E18.99962
G1 X152.271 Y136.997 E19.04332
G1 X151.393 Y137.328 E19.08701
G1 X150.489 Y137.581 E19.13072
G1 X149.562 Y137.753 E19.17462
G1 X148.411 Y137.851 E19.22841
G1 X147.77 Y137.865 E19.25827
G1 X72.47 Y137.864 E22.76455
G1 X71.754 Y137.854 E22.79789
G1 X70.818 Y137.8 E22.84155
G1 X69.889 Y137.661 E22.88529
G1 X68.977 Y137.442 E22.92896
G1 X68.087 Y137.143 E22.97268
G1 X67.228 Y136.766 E23.01636
G1 X66.405 Y136.315 E23.06006
G1 X65.625 Y135.793 E23.10376
G1 X64.921 Y135.227 E23.14583
G1 X64.219 Y134.552 E23.19117
G1 X63.604 Y133.843 E23.23488
G1 X63.074 Y133.112 E23.27692
G1 X62.574 Y132.276 E23.32228
G1 X62.166 Y131.431 E23.36597
G1 X61.835 Y130.553 E23.40966
G1 X61.583 Y129.649 E23.45336
G1 X61.411 Y128.72 E23.49736
G1 X61.313 Y127.541 E23.55245
G1 X61.3 Y126.923 E23.58123
G1 X61.301 Y102.396 E24.72331
G1 X61.311 Y101.713 E24.75511
G1 X61.366 Y100.776 E24.79882
G1 X61.505 Y99.848 E24.84251
G1 X61.725 Y98.936 E24.8862
G1 X62.025 Y98.046 E24.92993
G1 X62.402 Y97.187 E24.97361
G1 X62.853 Y96.365 E25.01727
G1 X63.376 Y95.585 E25.061
G1 X63.943 Y94.881 E25.10309
G1 X64.618 Y94.18 E25.14841
G1 X65.327 Y93.565 E25.19211
G1 X66.059 Y93.035 E25.23419
G0 F9000 X66.294 Y93.359
G1 F3000 X67.069 Y92.896 E25.27623
G1 X67.882 Y92.503 E25.31828
G1 X68.727 Y92.183 E25.36035
G1 X69.596 Y91.94 E25.40237
G1 X70.484 Y91.774 E25.44443
G1 X71.623 Y91.678 E25.49766
G1 X72.23 Y91.665 E25.52593
G1 X147.393 Y91.665 E29.02583
G1 X148.237 Y91.676 E29.06513
G1 X149.139 Y91.729 E29.10721
G1 X150.032 Y91.861 E29.14924
G1 X150.91 Y92.072 E29.19129
G1 X151.766 Y92.36 E29.23334
G1 X152.593 Y92.722 E29.27538
G1 X153.385 Y93.157 E29.31745
G1 X154.136 Y93.659 E29.35952
G1 X154.839 Y94.226 E29.40157
G1 X155.489 Y94.853 E29.44363
G1 X156.081 Y95.535 E29.48568
G1 X156.611 Y96.266 E29.52772
G1 X157.073 Y97.042 E29.56977
G1 X157.466 Y97.855 E29.61182
G1 X157.784 Y98.7 E29.65386
G1 X158.027 Y99.57 E29.69592
G1 X158.192 Y100.458 E29.73798
G1 X158.287 Y101.588 E29.79078
G1 X158.3 Y102.195 E29.81905
G1 X158.299 Y126.655 E30.95801
G1 X158.29 Y127.382 E30.99187
G1 X158.239 Y128.284 E31.03394
G1 X158.108 Y129.178 E31.07601
G1 X157.899 Y130.056 E31.11804
G1 X157.613 Y130.913 E31.1601
G1 X157.252 Y131.741 E31.20217
G1 X156.82 Y132.533 E31.24417
G1 X156.319 Y133.285 E31.28625
G1 X155.753 Y133.989 E31.32831
G1 X155.128 Y134.64 E31.37033
G1 X154.447 Y135.234 E31.41241
G1 X153.716 Y135.765 E31.45448
G1 X152.942 Y136.229 E31.4965
G1 X152.129 Y136.623 E31.53857
G1 X151.285 Y136.943 E31.5806
G1 X150.415 Y137.188 E31.62269
G1 X149.528 Y137.354 E31.66471
G1 X148.377 Y137.452 E31.7185
G1 X147.77 Y137.465 E31.74677
G1 X72.475 Y137.464 E35.25282
G1 X71.777 Y137.455 E35.28532
G1 X70.876 Y137.404 E35.32734
G1 X69.982 Y137.272 E35.36942
G1 X69.104 Y137.063 E35.41145
G1 X68.247 Y136.776 E35.45353
G1 X67.42 Y136.415 E35.49555
G1 X66.627 Y135.982 E35.53762
G1 X65.876 Y135.481 E35.57966
G1 X65.172 Y134.915 E35.62172
G1 X64.521 Y134.289 E35.66378
G1 X63.928 Y133.608 E35.70582
G1 X63.398 Y132.877 E35.74787
G1 X62.934 Y132.102 E35.78993
G1 X62.54 Y131.289 E35.832
G1 X62.22 Y130.445 E35.87403
G1 X61.976 Y129.575 E35.9161
G1 X61.81 Y128.687 E35.95816
G1 X61.713 Y127.532 E36.01214
G1 X61.7 Y126.923 E36.0405
G1 X61.701 Y102.401 E37.18235
G1 X61.71 Y101.736 E37.21331
G1 X61.762 Y100.834 E37.25539
G1 X61.894 Y99.941 E37.29742
G1 X62.104 Y99.063 E37.33946
G1 X62.391 Y98.206 E37.38154
G1 X62.753 Y97.379 E37.42358
G1 X63.186 Y96.587 E37.46561
G1 X63.688 Y95.836 E37.50767
G1 X64.255 Y95.132 E37.54976
G1 X64.881 Y94.482 E37.59178
G1 X65.562 Y93.889 E37.63383
G1 X66.294 Y93.359 E37.67591
G1 F3000 E31.67591
;MESH:Edge_Bracket.stl
G0 F9000 X72.314 Y101.2
G0 X72.314 Y102.279
G0 X72.9 Y126.265
;TYPE:WALL-INNER
G1 F3000 E37.67591
G1 X147.1 Y126.265 E41.13097
G1 X147.1 Y102.865 E42.22057
G1 X72.901 Y102.866 E45.67559
G1 X72.9 Y126.265 E46.76515
G0 F9000 X72.5 Y126.665
G1 F3000 X147.5 Y126.665 E50.25746
G1 X147.5 Y102.465 E51.38431
G1 X72.501 Y102.466 E54.87658
G1 X72.5 Y126.665 E56.00339
G1 F3000 E50.00339
G0 F9000 X72.77 Y126.395
G0 X92.977 Y126.065
G0 X92.29 Y119.838
G0 X92.977 Y119.479
G1 F3000 E56.00339
G1 X92.302 Y119.649 E56.0358
G1 X91.552 Y119.692 E56.07078
G1 X90.851 Y119.586 E56.10379
G1 X90.185 Y119.337 E56.1369
G1 X89.573 Y118.957 E56.17045
G1 X89.049 Y118.458 E56.20414
G1 X88.645 Y117.867 E56.23747
G1 X88.364 Y117.21 E56.27075
G1 X88.216 Y116.51 E56.30406
G1 X88.222 Y115.792 E56.3375
G1 X88.365 Y115.091 E56.37081
G1 X88.644 Y114.428 E56.4043
G1 X89.057 Y113.848 E56.43746
G1 X89.575 Y113.354 E56.47079
G1 X90.185 Y112.973 E56.50428
G1 X90.854 Y112.724 E56.53752
G1 X91.55 Y112.613 E56.57034
G1 X92.283 Y112.648 E56.60451
G1 X92.978 Y112.833 E56.638
G1 X93.618 Y113.148 E56.67121
G1 X94.186 Y113.59 E56.70472
G1 X94.652 Y114.132 E56.73801
G1 X94.997 Y114.756 E56.77121
G1 X95.216 Y115.443 E56.80478
G1 X95.29 Y116.165 E56.83858
G1 X95.212 Y116.862 E56.87124
G1 X94.998 Y117.544 E56.90452
G1 X94.65 Y118.175 E56.93808
G1 X94.192 Y118.719 E56.97119
G1 X93.619 Y119.163 E57.00494
G1 X92.977 Y119.479 E57.03826
G0 F9000 X92.837 Y119.102
G1 F3000 X92.233 Y119.255 E57.06727
G1 X91.575 Y119.291 E57.09796
G1 X90.953 Y119.197 E57.12725
G1 X90.361 Y118.977 E57.15666
G1 X89.821 Y118.64 E57.1863
G1 X89.357 Y118.198 E57.21614
G1 X88.993 Y117.677 E57.24573
G1 X88.746 Y117.092 E57.2753
G1 X88.62 Y116.473 E57.30472
G1 X88.62 Y115.833 E57.33452
G1 X88.747 Y115.211 E57.36408
G1 X88.994 Y114.626 E57.39365
G1 X89.358 Y114.105 E57.42324
G1 X89.82 Y113.67 E57.45279
G1 X90.361 Y113.332 E57.48249
G1 X90.953 Y113.108 E57.51196
G1 X91.582 Y113.013 E57.54159
G1 X92.22 Y113.045 E57.57133
G1 X92.839 Y113.204 E57.60109
G1 X93.406 Y113.486 E57.63058
G1 X93.91 Y113.875 E57.66022
G1 X94.323 Y114.36 E57.68989
G1 X94.629 Y114.913 E57.71931
G1 X94.816 Y115.503 E57.74813
G1 X94.885 Y116.129 E57.77746
G1 X94.82 Y116.782 E57.80802
G1 X94.63 Y117.387 E57.83754
G1 X94.323 Y117.95 E57.8674
G1 X93.911 Y118.431 E57.89689
G1 X93.406 Y118.822 E57.92663
G1 X92.837 Y119.102 E57.95616
G1 F3000 E51.95616
G0 F9000 X92.968 Y119.369
G0 X94.319 Y118.849
G0 X125.977 Y119.103
G0 X127.364 Y119.586
G1 F3000 E57.95616
G1 X126.691 Y119.334 E57.98963
G1 X126.09 Y118.96 E58.02259
G1 X125.563 Y118.46 E58.05641
G1 X125.158 Y117.867 E58.08985
G1 X124.877 Y117.211 E58.12308
G1 X124.73 Y116.51 E58.15643
G1 X124.73 Y115.778 E58.19052
G1 X124.888 Y115.062 E58.22466
G1 X125.159 Y114.438 E58.25634
G1 X125.567 Y113.849 E58.2897
G1 X126.089 Y113.345 E58.32349
G1 X126.696 Y112.974 E58.35662
G1 X127.363 Y112.72 E58.38985
G1 X128.067 Y112.613 E58.42301
G1 X128.802 Y112.649 E58.45727
G1 X129.487 Y112.832 E58.49029
G1 X130.131 Y113.148 E58.52369
G1 X130.7 Y113.584 E58.55707
G1 X131.162 Y114.129 E58.59034
G1 X131.515 Y114.76 E58.62401
G1 X131.724 Y115.439 E58.65709
G1 X131.798 Y116.153 E58.69051
G1 X131.726 Y116.879 E58.72448
G1 X131.509 Y117.547 E58.75719
G1 X131.164 Y118.173 E58.79047
G1 X130.704 Y118.719 E58.82372
G1 X130.133 Y119.162 E58.85737
G1 X129.489 Y119.479 E58.89079
G1 X128.814 Y119.649 E58.9232
G1 X128.065 Y119.692 E58.95814
G1 X127.364 Y119.586 E58.99115
G0 F9000 X127.47 Y119.198
G1 F3000 X126.871 Y118.974 E59.02093
G1 X126.332 Y118.639 E59.05048
G1 X125.868 Y118.199 E59.08025
G1 X125.509 Y117.674 E59.10987
G1 X125.259 Y117.093 E59.13932
G1 X125.13 Y116.45 E59.16986
G1 X125.129 Y115.862 E59.19724
G1 X125.254 Y115.232 E59.22715
G1 X125.509 Y114.631 E59.25755
G1 X125.871 Y114.109 E59.28712
G1 X126.336 Y113.667 E59.317
G1 X126.872 Y113.333 E59.34641
G1 X127.466 Y113.108 E59.37598
G1 X128.096 Y113.013 E59.40565
G1 X128.737 Y113.046 E59.43554
G1 X129.348 Y113.203 E59.46491
G1 X129.919 Y113.487 E59.49461
G1 X130.422 Y113.875 E59.52419
G1 X130.833 Y114.357 E59.55368
G1 X131.146 Y114.919 E59.58364
G1 X131.332 Y115.52 E59.61293
G1 X131.398 Y116.153 E59.64257
G1 X131.336 Y116.766 E59.67126
G1 X131.141 Y117.39 E59.7017
G1 X130.837 Y117.948 E59.73129
G1 X130.425 Y118.428 E59.76074
G1 X129.921 Y118.821 E59.7905
G1 X129.347 Y119.103 E59.82028
G1 X128.745 Y119.255 E59.84919
G1 X128.088 Y119.291 E59.87983
G1 X127.47 Y119.198 E59.90893
G0 F9000 X127.548 Y118.801
;TYPE:WALL-OUTER
G1 F3000 X127.067 Y118.621 E59.93285
G1 X126.566 Y118.309 E59.96033
G1 X126.189 Y117.951 E59.98454
G1 X125.859 Y117.481 E60.01128
G1 X125.641 Y116.974 E60.03698
G1 X125.53 Y116.438 E60.06246
G1 X125.529 Y115.884 E60.08826
G1 X125.64 Y115.338 E60.1142
G1 X125.859 Y114.824 E60.14022
G1 X126.163 Y114.384 E60.16512
G1 X126.581 Y113.983 E60.19209
G1 X127.049 Y113.692 E60.21776
G1 X127.584 Y113.495 E60.2443
G1 X128.137 Y113.416 E60.27031
G1 X128.695 Y113.449 E60.29634
G1 X129.209 Y113.582 E60.32106
G1 X129.706 Y113.826 E60.34685
G1 X130.145 Y114.168 E60.37276
G1 X130.515 Y114.602 E60.39931
G1 X130.769 Y115.063 E60.42382
G1 X130.94 Y115.602 E60.45015
G1 X130.998 Y116.153 E60.47595
G1 X130.942 Y116.697 E60.50142
G1 X130.773 Y117.234 E60.52763
G1 X130.516 Y117.702 E60.55249
G1 X130.159 Y118.124 E60.57823
G1 X129.689 Y118.489 E60.60594
G1 X129.229 Y118.715 E60.62981
G1 X128.676 Y118.861 E60.65644
G1 X128.125 Y118.889 E60.68213
G1 X127.548 Y118.801 E60.70931
G1 F3000 E54.70931
G0 F9000 X127.305 Y119.454
G0 X125.977 Y119.103
G0 X94.319 Y118.849
G0 X92.337 Y119.538
G0 X92.164 Y118.861
G1 F3000 E60.70931
G1 X91.612 Y118.889 E60.73504
G1 X91.035 Y118.801 E60.76222
G1 X90.556 Y118.622 E60.78603
G1 X90.083 Y118.331 E60.81189
G1 X89.652 Y117.922 E60.83956
G1 X89.345 Y117.48 E60.86462
G1 X89.128 Y116.974 E60.89025
G1 X89.018 Y116.433 E60.91596
G1 X89.021 Y115.853 E60.94297
G1 X89.136 Y115.312 E60.96872
G1 X89.356 Y114.807 E60.99437
G1 X89.652 Y114.383 E61.01845
G1 X90.066 Y113.986 E61.04516
G1 X90.538 Y113.691 E61.07108
G1 X91.055 Y113.499 E61.09676
G1 X91.582 Y113.418 E61.12158
G1 X92.139 Y113.442 E61.14754
G1 X92.7 Y113.583 E61.17448
G1 X93.193 Y113.825 E61.20005
G1 X93.633 Y114.168 E61.22603
G1 X93.994 Y114.588 E61.25182
G1 X94.261 Y115.069 E61.27744
G1 X94.43 Y115.609 E61.30378
G1 X94.485 Y116.145 E61.32887
G1 X94.428 Y116.702 E61.35494
G1 X94.262 Y117.231 E61.38076
G1 X94.002 Y117.704 E61.40589
G1 X93.618 Y118.152 E61.43337
G1 X93.176 Y118.489 E61.45925
G1 X92.717 Y118.715 E61.48307
G1 X92.164 Y118.861 E61.50971
G1 F3000 E55.50971
G0 F9000 X92.337 Y119.538
G0 X90.104 Y119.501
G0 X90.104 Y126.065
G0 X72.1 Y127.065
G1 F3000 E61.50971
G1 X147.9 Y127.065 E65.03927
G1 X147.9 Y102.065 E66.20338
G1 X72.101 Y102.066 E69.7329
G1 X72.1 Y127.065 E70.89695
G1 F3000 E64.89695
G0 F9000 X72.37 Y126.795
G0 X127.319 Y126.065
G0 X128.056 Y119.873
G0 X127.319 Y119.666
G0 X127.249 Y119.929
;TYPE:SKIN
G1 F3000 E70.89695
G1 X128.056 Y120.053 E70.93497
G1 X128.834 Y120.014 E70.97124
G1 X129.593 Y119.825 E71.00767
G1 X130.302 Y119.482 E71.04434
G1 X130.971 Y118.961 E71.08382
G1 X131.45 Y118.389 E71.11856
G1 X131.828 Y117.727 E71.15406
G1 X132.08 Y116.949 E71.19214
G1 X132.16 Y116.154 E71.22935
G1 X132.077 Y115.364 E71.26633
G1 X131.859 Y114.645 E71.30132
G1 X131.434 Y113.885 E71.34187
G1 X130.932 Y113.312 E71.37734
G1 X130.31 Y112.83 E71.41398
G1 X129.599 Y112.491 E71.45066
G1 X128.878 Y112.296 E71.48544
G1 X128.024 Y112.254 E71.52525
G1 X127.249 Y112.378 E71.5618
G1 X126.558 Y112.64 E71.59621
G1 X125.915 Y113.029 E71.6312
G1 X125.331 Y113.566 E71.66814
G1 X124.854 Y114.244 E71.70674
G1 X124.533 Y114.968 E71.74362
G1 X124.371 Y115.744 E71.78053
G1 X124.375 Y116.592 E71.82002
G1 X124.533 Y117.319 E71.85466
G1 X124.854 Y118.061 E71.89231
G1 X125.267 Y118.668 E71.92649
G1 X125.854 Y119.234 E71.96446
G1 X126.549 Y119.667 E72.00259
G1 X127.249 Y119.929 E72.0374
G1 F3000 E66.0374
G0 F9000 X127.319 Y119.666
G0 X125.977 Y119.103
G0 X94.319 Y118.849
G0 X93.01 Y119.574
G0 X93.078 Y119.827
G1 F3000 E72.0374
G1 X93.827 Y119.459 E72.07626
G1 X94.425 Y118.995 E72.1115
G1 X94.938 Y118.391 E72.1484
G1 X95.32 Y117.705 E72.18496
G1 X95.559 Y116.979 E72.22055
G1 X95.651 Y116.158 E72.25902
G1 X95.569 Y115.372 E72.29582
G1 X95.31 Y114.566 E72.33524
G1 X94.927 Y113.89 E72.37142
G1 X94.449 Y113.343 E72.40524
G1 X93.795 Y112.83 E72.44395
G1 X93.088 Y112.491 E72.48046
G1 X92.361 Y112.295 E72.51552
G1 X91.509 Y112.254 E72.55524
G1 X90.736 Y112.378 E72.59169
G1 X90.047 Y112.639 E72.626
