;FLAVOR:Marlin
;TIME:6081
;Filament used: 8.52726m
;Layer height: 0.2
;MINX:46.477
;MINY:68.2
;MINZ:0.2
;MAXX:163.95
;MAXY:151.799
;MAXZ:18
;Generated with Cura_SteamEngine 5.4.0
M82 ;absolute extrusion mode
print_start EXTRUDER=200 BED=65.0
G92 E0
G92 E0
G1 F3000 E-5
;LAYER_COUNT:90
;LAYER:0
M107
G0 F9000 X60.7 Y71.579 Z0.2
;TYPE:SKIRT
G1 F3000 E0
G1 F1800 X61.629 Y70.834 E0.03961
G1 X61.901 Y70.64 E0.05072
G1 X62.927 Y69.993 E0.09106
G1 X63.231 Y69.826 E0.1026
G1 X64.235 Y69.34 E0.1397
G1 X64.554 Y69.206 E0.15121
G1 X65.729 Y68.792 E0.19264
G1 X66.056 Y68.698 E0.20396
G1 X67.119 Y68.453 E0.24024
G1 X67.487 Y68.389 E0.25266
G1 X68.686 Y68.248 E0.29282
G1 X69.477 Y68.212 E0.31915
G1 X70.384 Y68.2 E0.34932
G1 X149.654 Y68.2 E2.98585
G1 X150.426 Y68.21 E3.01153
G1 X151.293 Y68.249 E3.0404
G1 X152.469 Y68.38 E3.07976
G1 X152.795 Y68.436 E3.09076
G1 X153.862 Y68.676 E3.12713
G1 X154.216 Y68.776 E3.13937
G1 X155.382 Y69.18 E3.18041
G1 X155.708 Y69.315 E3.19215
G1 X156.764 Y69.824 E3.23114
G1 X157.072 Y69.994 E3.24284
G1 X158.124 Y70.659 E3.28423
G1 X158.456 Y70.898 E3.29784
G1 X159.3 Y71.578 E3.33389
G1 X159.587 Y71.835 E3.3467
G1 X160.254 Y72.489 E3.37777
G1 X160.688 Y72.984 E3.39966
G1 X161.013 Y73.379 E3.41668
G1 X161.576 Y74.13 E3.4479
G1 X162.072 Y74.931 E3.47923
G1 X162.304 Y75.346 E3.49504
G1 X162.825 Y76.418 E3.53469
G1 X162.972 Y76.772 E3.54744
G1 X163.348 Y77.846 E3.58528
G1 X163.454 Y78.214 E3.59802
G1 X163.716 Y79.361 E3.63715
G1 X163.778 Y79.733 E3.6497
G1 X163.903 Y80.838 E3.68668
G1 X163.938 Y81.609 E3.71235
G1 X163.949 Y82.36 E3.73733
G1 X163.95 Y138.505 E5.60472
G1 X163.931 Y139.616 E5.64168
G1 X163.872 Y140.557 E5.67304
G1 X163.698 Y141.639 E5.70949
G1 X163.624 Y141.982 E5.72116
G1 X163.386 Y142.886 E5.75225
G1 X163.107 Y143.686 E5.78043
G1 X162.746 Y144.551 E5.81161
G1 X162.326 Y145.358 E5.84187
G1 X161.828 Y146.179 E5.8738
G1 X161.359 Y146.831 E5.90052
G1 X160.45 Y147.892 E5.94699
G1 X160.221 Y148.125 E5.95785
G1 X159.538 Y148.763 E5.98894
G1 X159.025 Y149.175 E6.01082
G1 X158.793 Y149.349 E6.02047
G1 X158.021 Y149.876 E6.05156
G1 X157.278 Y150.301 E6.08003
G1 X156.438 Y150.714 E6.11116
G1 X155.65 Y151.026 E6.13935
G1 X154.74 Y151.324 E6.1712
G1 X153.976 Y151.509 E6.19734
G1 X153.048 Y151.674 E6.22869
G1 X151.925 Y151.763 E6.26616
G1 X150.583 Y151.797 E6.31081
G1 X70.198 Y151.799 E8.98442
G1 X69.568 Y151.79 E9.00538
G1 X68.738 Y151.754 E9.03301
G1 X67.59 Y151.63 E9.07142
G1 X67.291 Y151.581 E9.08149
G1 X66.086 Y151.31 E9.12257
G1 X65.737 Y151.21 E9.13465
G1 X64.538 Y150.787 E9.17694
G1 X64.178 Y150.634 E9.18995
G1 X63.136 Y150.124 E9.22853
G1 X62.861 Y149.969 E9.23903
G1 X61.914 Y149.369 E9.27632
G1 X61.615 Y149.155 E9.28855
G1 X60.715 Y148.435 E9.32688
G1 X60.479 Y148.224 E9.33741
G1 X59.662 Y147.409 E9.37579
G1 X59.415 Y147.134 E9.38809
G1 X58.667 Y146.198 E9.42794
G1 X58.461 Y145.908 E9.43977
G1 X57.842 Y144.921 E9.47852
G1 X57.675 Y144.617 E9.49006
G1 X57.186 Y143.607 E9.52738
G1 X57.045 Y143.27 E9.53953
G1 X56.767 Y142.528 E9.56588
G1 X56.486 Y141.681 E9.59556
G1 X55.631 Y139.227 E9.682
G1 X54.737 Y136.876 E9.76565
G1 X53.759 Y134.51 E9.85081
G1 X52.737 Y132.222 E9.93415
G1 X51.64 Y129.942 E10.01831
G1 X50.474 Y127.684 E10.10283
G1 X49.27 Y125.506 E10.1856
G1 X48.854 Y124.799 E10.21289
G1 X48.376 Y123.956 E10.24512
G1 X47.949 Y123.114 E10.27652
G1 X47.509 Y121.974 E10.31716
G1 X47.277 Y121.232 E10.34302
G1 X46.888 Y119.867 E10.39023
G1 X46.672 Y118.954 E10.42143
G1 X46.541 Y118.06 E10.45148
G1 X46.487 Y117.155 E10.48164
G1 X46.479 Y116.411 E10.50638
G1 X46.509 Y114.437 E10.57205
G1 X46.504 Y111.628 E10.66547
G1 X46.48 Y110.183 E10.71354
G1 X46.477 Y109.351 E10.74121
G1 X46.499 Y107.176 E10.81356
G1 X46.485 Y104.213 E10.91211
G1 X46.524 Y103.275 E10.94333
G1 X46.639 Y102.38 E10.97335
G1 X46.88 Y101.314 E11.0097
G1 X47.193 Y100.198 E11.04825
G1 X47.481 Y99.256 E11.08101
G1 X47.785 Y98.406 E11.11103
G1 X48.338 Y97.251 E11.15363
G1 X49.471 Y95.221 E11.23095
G1 X50.641 Y92.989 E11.31477
G1 X51.755 Y90.708 E11.3992
G1 X52.8 Y88.405 E11.48331
G1 X53.784 Y86.065 E11.56774
G1 X54.703 Y83.695 E11.65229
G1 X55.532 Y81.359 E11.73473
G1 X56.469 Y78.444 E11.83657
G1 X56.694 Y77.707 E11.8622
G1 X57.059 Y76.697 E11.89792
G1 X57.203 Y76.355 E11.91026
G1 X57.743 Y75.255 E11.95102
G1 X57.911 Y74.958 E11.96237
G1 X58.521 Y74.007 E11.99994
G1 X58.735 Y73.71 E12.01212
G1 X59.428 Y72.85 E12.04885
G1 X59.637 Y72.617 E12.05927
G1 X60.427 Y71.825 E12.09647
G1 X60.7 Y71.579 E12.10869
G0 F9000 X60.951 Y71.891
G1 F1800 X61.861 Y71.16 E12.14752
G1 X62.133 Y70.966 E12.15863
G1 X63.121 Y70.343 E12.19748
G1 X63.405 Y70.186 E12.20827
G1 X64.39 Y69.709 E12.24467
G1 X64.709 Y69.575 E12.25618
G1 X65.84 Y69.176 E12.29607
G1 X66.146 Y69.088 E12.30666
G1 X67.189 Y68.847 E12.34226
G1 X67.534 Y68.786 E12.35392
G1 X68.705 Y68.648 E12.39313
G1 X69.482 Y68.612 E12.419
G1 X70.389 Y68.6 E12.44917
G1 X149.649 Y68.6 E15.08537
G1 X150.408 Y68.61 E15.11062
G1 X151.249 Y68.647 E15.13862
G1 X152.425 Y68.778 E15.17797
G1 X152.707 Y68.826 E15.18749
G1 X153.754 Y69.061 E15.22318
G1 X154.085 Y69.154 E15.23461
G1 X155.229 Y69.55 E15.27488
G1 X155.555 Y69.685 E15.28661
G1 X156.571 Y70.174 E15.32412
G1 X156.858 Y70.332 E15.33501
G1 X157.91 Y70.997 E15.37641
G1 X158.205 Y71.21 E15.38851
G1 X159.033 Y71.876 E15.42385
G1 X159.307 Y72.121 E15.43608
G1 X159.953 Y72.753 E15.46613
G1 X160.379 Y73.238 E15.4876
G1 X160.693 Y73.619 E15.50403
G1 X161.236 Y74.341 E15.53407
G1 X161.723 Y75.126 E15.5648
G1 X161.944 Y75.521 E15.57985
G1 X162.465 Y76.593 E15.6195
G1 X162.594 Y76.904 E15.63069
G1 X162.97 Y77.978 E15.66854
G1 X163.064 Y78.303 E15.67979
G1 X163.326 Y79.45 E15.71893
G1 X163.381 Y79.778 E15.72999
G1 X163.503 Y80.856 E15.76607
G1 X163.538 Y81.615 E15.79134
G1 X163.549 Y82.36 E15.81612
G1 X163.55 Y138.498 E17.68328
G1 X163.532 Y139.592 E17.71967
G1 X163.477 Y140.494 E17.74973
G1 X163.307 Y141.555 E17.78547
G1 X163.237 Y141.881 E17.79656
G1 X163.008 Y142.755 E17.82661
G1 X162.738 Y143.532 E17.85397
G1 X162.391 Y144.366 E17.88401
G1 X161.971 Y145.173 E17.91427
G1 X161.503 Y145.945 E17.9443
G1 X161.034 Y146.597 E17.97101
G1 X160.164 Y147.612 E18.01547
G1 X159.948 Y147.833 E18.02575
G1 X159.288 Y148.451 E18.05582
G1 X158.785 Y148.855 E18.07728
G1 X158.567 Y149.019 E18.08636
G1 X157.822 Y149.529 E18.11638
G1 X157.101 Y149.942 E18.14402
G1 X156.291 Y150.342 E18.17407
G1 X155.503 Y150.654 E18.20226
G1 X154.645 Y150.935 E18.23228
G1 X153.905 Y151.115 E18.25761
G1 X153.016 Y151.275 E18.28766
G1 X151.915 Y151.363 E18.32439
G1 X150.583 Y151.397 E18.36871
G1 X70.204 Y151.399 E21.04213
G1 X69.585 Y151.39 E21.06272
G1 X68.781 Y151.356 E21.08948
G1 X67.655 Y151.235 E21.12715
G1 X67.356 Y151.186 E21.13723
G1 X66.196 Y150.925 E21.17677
G1 X65.847 Y150.825 E21.18885
G1 X64.693 Y150.418 E21.22955
G1 X64.354 Y150.275 E21.24178
G1 X63.332 Y149.775 E21.27963
G1 X63.075 Y149.631 E21.28942
G1 X62.146 Y149.043 E21.32599
G1 X61.865 Y148.843 E21.33746
G1 X60.982 Y148.137 E21.37507
G1 X60.746 Y147.926 E21.38559
G1 X59.959 Y147.142 E21.42254
G1 X59.727 Y146.884 E21.43408
G1 X58.993 Y145.967 E21.47315
G1 X58.8 Y145.695 E21.48424
G1 X58.192 Y144.727 E21.52226
G1 X58.035 Y144.443 E21.53306
G1 X57.555 Y143.452 E21.56968
G1 X57.42 Y143.13 E21.58129
G1 X57.147 Y142.402 E21.60715
G1 X56.866 Y141.555 E21.63683
G1 X56.009 Y139.095 E21.72348
G1 X55.107 Y136.723 E21.80788
G1 X54.129 Y134.357 E21.89303
G1 X53.102 Y132.059 E21.97675
G1 X52 Y129.769 E22.06127
G1 X50.824 Y127.491 E22.14654
G1 X49.615 Y125.303 E22.22969
G1 X49.202 Y124.602 E22.25675
G1 X48.732 Y123.774 E22.28841
G1 X48.322 Y122.97 E22.31843
G1 X47.891 Y121.855 E22.35819
G1 X47.662 Y121.122 E22.38373
G1 X47.277 Y119.774 E22.43036
G1 X47.068 Y118.896 E22.46038
G1 X46.937 Y118.002 E22.49043
G1 X46.887 Y117.151 E22.51878
G1 X46.879 Y116.417 E22.5432
G1 X46.909 Y114.443 E22.60886
G1 X46.904 Y111.627 E22.70252
G1 X46.88 Y110.182 E22.75059
G1 X46.877 Y109.355 E22.7781
G1 X46.899 Y107.18 E22.85044
G1 X46.885 Y104.229 E22.94859
G1 X46.921 Y103.326 E22.97865
G1 X47.036 Y102.431 E23.00866
G1 X47.265 Y101.422 E23.04307
G1 X47.576 Y100.315 E23.08132
G1 X47.858 Y99.391 E23.11345
G1 X48.162 Y98.541 E23.14348
G1 X48.699 Y97.424 E23.1847
G1 X49.82 Y95.416 E23.26119
G1 X50.995 Y93.175 E23.34535
G1 X52.114 Y90.884 E23.43015
G1 X53.169 Y88.56 E23.51504
G1 X54.153 Y86.22 E23.59947
G1 X55.076 Y83.84 E23.68437
G1 X55.909 Y81.493 E23.7672
G1 X56.85 Y78.566 E23.86946
G1 X57.07 Y77.843 E23.8946
G1 X57.428 Y76.852 E23.92964
G1 X57.572 Y76.51 E23.94199
G1 X58.091 Y75.452 E23.98118
G1 X58.248 Y75.174 E23.9918
G1 X58.858 Y74.223 E24.02938
G1 X59.047 Y73.961 E24.04012
G1 X59.726 Y73.117 E24.07615
G1 X59.935 Y72.884 E24.08656
G1 X60.695 Y72.122 E24.12236
G1 X60.951 Y71.891 E24.13383
G1 F3000 E19.13383
G0 F9000 X60.788 Y100.671
G1 F3000 E24.13383
G1 F1800 X62.536 Y101.162 E24.19421
G1 X63.803 Y102.497 E24.25543
G1 X64.291 Y104.171 E24.31343
G1 X63.801 Y105.922 E24.3739
G1 X63.507 Y106.217 E24.38775
G1 X63.451 Y106.328 E24.39189
G1 X63.504 Y106.495 E24.39772
G1 X63.801 Y106.809 E24.41209
G1 X64.291 Y108.486 E24.4702
G1 X64.034 Y109.401 E24.50181
G1 X64.035 Y109.511 E24.50547
G1 X64.29 Y110.382 E24.53566
G1 X63.8 Y112.133 E24.59613
G1 X62.881 Y113.054 E24.63941
G1 X62.825 Y113.165 E24.64354
G1 X62.878 Y113.332 E24.64937
G1 X63.801 Y114.307 E24.69402
G1 X64.292 Y115.985 E24.75217
G1 X64.165 Y116.438 E24.76782
G1 X64.166 Y116.548 E24.77148
G1 X64.29 Y116.971 E24.78614
G1 X63.8 Y118.723 E24.84665
G1 X62.538 Y119.985 E24.90601
G1 X60.786 Y120.475 E24.96652
G1 X59.112 Y119.986 E25.02452
G1 X57.775 Y118.649 E25.08741
G1 X57.284 Y116.974 E25.14547
G1 X57.412 Y116.538 E25.16058
G1 X57.412 Y116.425 E25.16434
G1 X57.283 Y115.987 E25.17952
G1 X57.775 Y114.307 E25.23775
G1 X58.734 Y113.294 E25.28414
G1 X58.787 Y113.182 E25.28827
G1 X58.73 Y113.016 E25.2941
G1 X57.775 Y112.06 E25.33905
G1 X57.283 Y110.384 E25.39714
G1 X57.546 Y109.491 E25.42811
G1 X57.546 Y109.378 E25.43186
G1 X57.284 Y108.487 E25.46275
G1 X57.775 Y106.809 E25.5209
G1 X58.108 Y106.457 E25.53702
G1 X58.162 Y106.344 E25.54119
G1 X58.105 Y106.179 E25.54699
G1 X57.775 Y105.848 E25.56254
G1 X57.283 Y104.173 E25.6206
G1 X57.773 Y102.497 E25.67868
G1 X59.04 Y101.162 E25.7399
G1 X60.788 Y100.671 E25.80028
G0 F9000 X60.788 Y101.086
G1 F1800 X62.322 Y101.517 E25.85328
G1 X63.446 Y102.701 E25.90758
G1 X63.875 Y104.173 E25.95858
G1 X63.444 Y105.713 E26.01176
G1 X63.224 Y105.934 E26.02214
G1 X63.101 Y106.114 E26.02939
G1 X63.05 Y106.326 E26.03664
G1 X63.078 Y106.543 E26.04392
G1 X63.213 Y106.77 E26.0527
G1 X63.445 Y107.015 E26.06392
G1 X63.875 Y108.488 E26.11496
G1 X63.649 Y109.293 E26.14277
G1 X63.63 Y109.51 E26.15002
G1 X63.651 Y109.623 E26.15384
G1 X63.874 Y110.385 E26.18025
G1 X63.443 Y111.924 E26.2334
G1 X62.598 Y112.771 E26.2732
G1 X62.475 Y112.951 E26.28045
G1 X62.424 Y113.163 E26.2877
G1 X62.452 Y113.38 E26.29498
G1 X62.587 Y113.607 E26.30376
G1 X63.445 Y114.513 E26.34526
G1 X63.876 Y115.988 E26.39637
G1 X63.78 Y116.33 E26.40819
G1 X63.761 Y116.547 E26.41543
G1 X63.782 Y116.66 E26.41925
G1 X63.874 Y116.974 E26.43014
G1 X63.443 Y118.514 E26.48333
G1 X62.329 Y119.628 E26.53573
G1 X60.789 Y120.059 E26.58891
G1 X59.323 Y119.631 E26.63971
G1 X58.13 Y118.438 E26.69582
G1 X57.701 Y116.973 E26.7466
G1 X57.796 Y116.651 E26.75776
G1 X57.818 Y116.434 E26.76502
G1 X57.796 Y116.312 E26.76914
G1 X57.7 Y115.986 E26.78044
G1 X58.131 Y114.513 E26.83149
G1 X59.025 Y113.569 E26.87473
G1 X59.143 Y113.386 E26.88197
G1 X59.189 Y113.173 E26.88922
G1 X59.155 Y112.957 E26.8965
G1 X59.013 Y112.733 E26.90532
G1 X58.13 Y111.849 E26.94687
G1 X57.701 Y110.384 E26.99765
G1 X57.93 Y109.604 E27.02468
G1 X57.952 Y109.387 E27.03194
G1 X57.93 Y109.265 E27.03606
G1 X57.701 Y108.487 E27.06304
G1 X58.132 Y107.015 E27.11405
G1 X58.399 Y106.732 E27.12699
G1 X58.518 Y106.549 E27.13425
G1 X58.563 Y106.336 E27.14149
G1 X58.529 Y106.12 E27.14876
G1 X58.388 Y105.896 E27.15757
G1 X58.13 Y105.637 E27.16973
G1 X57.7 Y104.172 E27.22051
G1 X58.13 Y102.701 E27.27148
G1 X59.254 Y101.517 E27.32578
G1 X60.788 Y101.086 E27.37878
G0 F9000 X60.788 Y101.502
G1 F1800 X62.108 Y101.873 E27.42438
G1 X63.088 Y102.905 E27.47172
G1 X63.459 Y104.177 E27.51579
G1 X63.087 Y105.505 E27.56166
G1 X62.941 Y105.652 E27.56855
G1 X62.772 Y105.878 E27.57793
G1 X62.673 Y106.142 E27.58731
G1 X62.651 Y106.423 E27.59669
G1 X62.709 Y106.699 E27.60607
G1 X62.922 Y107.045 E27.61958
G1 X63.088 Y107.22 E27.6276
G1 X63.459 Y108.491 E27.67164
G1 X63.264 Y109.185 E27.69562
G1 X63.227 Y109.464 E27.70498
G1 X63.267 Y109.736 E27.71412
G1 X63.458 Y110.389 E27.73675
G1 X63.087 Y111.716 E27.78258
G1 X62.315 Y112.489 E27.81891
G1 X62.146 Y112.714 E27.82827
G1 X62.047 Y112.979 E27.83768
G1 X62.025 Y113.26 E27.84706
G1 X62.083 Y113.536 E27.85644
G1 X62.297 Y113.882 E27.86997
G1 X63.087 Y114.717 E27.9082
G1 X63.46 Y115.991 E27.95235
G1 X63.395 Y116.222 E27.96033
G1 X63.358 Y116.502 E27.96973
G1 X63.398 Y116.773 E27.97884
G1 X63.458 Y116.978 E27.98594
G1 X63.087 Y118.304 E28.03174
G1 X62.119 Y119.272 E28.07727
G1 X60.792 Y119.643 E28.1231
G1 X59.534 Y119.276 E28.16669
G1 X58.485 Y118.227 E28.21603
G1 X58.117 Y116.973 E28.2595
G1 X58.179 Y116.764 E28.26675
G1 X58.22 Y116.485 E28.27613
G1 X58.18 Y116.199 E28.28573
G1 X58.117 Y115.986 E28.29312
G1 X58.489 Y114.717 E28.3371
G1 X59.315 Y113.844 E28.37707
G1 X59.478 Y113.614 E28.38645
G1 X59.571 Y113.348 E28.39582
G1 X59.585 Y113.066 E28.40521
G1 X59.52 Y112.791 E28.41461
G1 X59.296 Y112.45 E28.42818
G1 X58.485 Y111.638 E28.46635
G1 X58.117 Y110.382 E28.50988
G1 X58.313 Y109.717 E28.53294
G1 X58.354 Y109.438 E28.54232
G1 X58.313 Y109.152 E28.55193
G1 X58.117 Y108.488 E28.57496
G1 X58.489 Y107.219 E28.61894
G1 X58.689 Y107.007 E28.62864
G1 X58.853 Y106.777 E28.63803
G1 X58.945 Y106.51 E28.64742
G1 X58.959 Y106.228 E28.65681
G1 X58.894 Y105.954 E28.66618
G1 X58.671 Y105.614 E28.6797
G1 X58.485 Y105.428 E28.68845
G1 X58.117 Y104.173 E28.73195
G1 X58.488 Y102.905 E28.77589
G1 X59.468 Y101.873 E28.82323
G1 X60.788 Y101.502 E28.86883
G0 F9000 X60.788 Y101.917
G1 F1800 X61.892 Y102.228 E28.90698
G1 X62.732 Y103.113 E28.94757
G1 X63.043 Y104.179 E28.9845
G1 X62.73 Y105.297 E29.02311
G1 X62.658 Y105.37 E29.02652
G1 X62.452 Y105.633 E29.03763
G1 X62.314 Y105.937 E29.04874
G1 X62.252 Y106.265 E29.05984
G1 X62.27 Y106.599 E29.07097
G1 X62.366 Y106.919 E29.08208
G1 X62.632 Y107.32 E29.09808
G1 X62.731 Y107.424 E29.10286
G1 X63.043 Y108.494 E29.13993
G1 X62.879 Y109.077 E29.16007
G1 X62.828 Y109.407 E29.17118
G1 X62.883 Y109.848 E29.18596
G1 X63.042 Y110.391 E29.20478
G1 X62.73 Y111.507 E29.24332
G1 X62.032 Y112.206 E29.27618
G1 X61.826 Y112.469 E29.28729
G1 X61.688 Y112.773 E29.29839
G1 X61.626 Y113.102 E29.30953
G1 X61.644 Y113.435 E29.32062
G1 X61.74 Y113.755 E29.33173
G1 X62.006 Y114.157 E29.34776
G1 X62.731 Y114.922 E29.38282
G1 X63.044 Y115.994 E29.41996
G1 X63.01 Y116.114 E29.42411
G1 X62.959 Y116.445 E29.43525
G1 X63.014 Y116.885 E29.45
G1 X63.042 Y116.98 E29.45329
G1 X62.73 Y118.095 E29.4918
G1 X61.91 Y118.915 E29.53037
G1 X60.795 Y119.227 E29.56888
G1 X59.745 Y118.921 E29.60526
G1 X58.839 Y118.015 E29.64787
G1 X58.534 Y116.975 E29.68392
G1 X58.563 Y116.877 E29.68732
G1 X58.618 Y116.547 E29.69845
G1 X58.563 Y116.087 E29.71385
G1 X58.534 Y115.987 E29.71732
G1 X58.845 Y114.923 E29.75419
G1 X59.606 Y114.119 E29.79101
G1 X59.805 Y113.851 E29.80211
G1 X59.935 Y113.543 E29.81323
G1 X59.988 Y113.214 E29.82431
G1 X59.961 Y112.881 E29.83542
G1 X59.857 Y112.563 E29.84655
G1 X59.579 Y112.168 E29.86262
G1 X58.84 Y111.428 E29.8974
G1 X58.534 Y110.384 E29.93359
G1 X58.697 Y109.83 E29.95279
G1 X58.752 Y109.5 E29.96392
G1 X58.697 Y109.039 E29.97936
G1 X58.534 Y108.487 E29.99851
G1 X58.845 Y107.424 E30.03534
G1 X58.98 Y107.282 E30.04186
G1 X59.179 Y107.014 E30.05296
G1 X59.309 Y106.706 E30.06408
G1 X59.362 Y106.376 E30.0752
G1 X59.335 Y106.043 E30.08631
G1 X59.231 Y105.726 E30.09741
G1 X58.954 Y105.331 E30.11345
G1 X58.839 Y105.216 E30.11886
G1 X58.534 Y104.173 E30.155
G1 X58.844 Y103.113 E30.19174
G1 X59.684 Y102.228 E30.23232
G1 X60.788 Y101.917 E30.27047
